(G-CODE GENERATED BY FLATCAM v8.994 - www.flatcam.org - Version Date: 2020/11/7)

(Name: Decada-PTH.drl_cnc)
(Type: G-code from Geometry)
(Units: MM)

(Created on Monday, 23 March 2026 at 00:20)

(This preprocessor is the default preprocessor used by FlatCAM.)
(It is made to work with MACH3 compatible motion controllers.)


(TOOLS DIAMETER: )
(Tool: 1 -> Dia: 0.8)

(FEEDRATE Z: )
(Tool: 1 -> Feedrate: 25.0)

(FEEDRATE RAPIDS: )
(Tool: 1 -> Feedrate Rapids: 1500)

(Z_CUT: )
(Tool: 1 -> Z_Cut: -0.8)

(Tools Offset: )
(Tool: 1 -> Offset Z: 0.0)

(Z_MOVE: )
(Tool: 1 -> Z_Move: 2)

(Z Toolchange: 15 mm)
(X,Y Toolchange: 0.0000, 0.0000 mm)
(Z Start: None mm)
(Z End: 0.5 mm)
(X,Y End: None mm)
(Steps per circle: 64)
(Preprocessor Excellon: default)

(X range:    1.9800 ...  119.2100  mm)
(Y range:  -59.4000 ...   -4.6000  mm)

(Spindle Speed: 10000 RPM)
G21
G90
G94

G01 F25.00

M5
G00 Z15.0000
T1
G00 X0.0000 Y0.0000                
M6
(MSG, Change to Tool Dia = 0.8000 ||| Total drills for tool T1 = 146)
M0
G00 Z15.0000

G01 F25.00
M03 S10000
G00 X2.3800 Y-18.0000
G01 Z-0.8000
G01 Z0
G00 Z2.0000
G00 X118.8100 Y-16.0000
G01 Z-0.8000
G01 Z0
G00 Z2.0000
G00 X118.8100 Y-11.0000
G01 Z-0.8000
G01 Z0
G00 Z2.0000
G00 X118.0000 Y-38.0000
G01 Z-0.8000
G01 Z0
G00 Z2.0000
G00 X118.0000 Y-33.0000
G01 Z-0.8000
G01 Z0
G00 Z2.0000
G00 X118.0000 Y-27.0000
G01 Z-0.8000
G01 Z0
G00 Z2.0000
G00 X118.0000 Y-22.0000
G01 Z-0.8000
G01 Z0
G00 Z2.0000
G00 X118.0000 Y-5.0000
G01 Z-0.8000
G01 Z0
G00 Z2.0000
G00 X117.8100 Y-43.0000
G01 Z-0.8000
G01 Z0
G00 Z2.0000
G00 X111.1900 Y-16.0000
G01 Z-0.8000
G01 Z0
G00 Z2.0000
G00 X111.1900 Y-11.0000
G01 Z-0.8000
G01 Z0
G00 Z2.0000
G00 X110.3800 Y-38.0000
G01 Z-0.8000
G01 Z0
G00 Z2.0000
G00 X110.3800 Y-33.0000
G01 Z-0.8000
G01 Z0
G00 Z2.0000
G00 X110.3800 Y-27.0000
G01 Z-0.8000
G01 Z0
G00 Z2.0000
G00 X110.3800 Y-22.0000
G01 Z-0.8000
G01 Z0
G00 Z2.0000
G00 X110.3800 Y-5.0000
G01 Z-0.8000
G01 Z0
G00 Z2.0000
G00 X110.1900 Y-43.0000
G01 Z-0.8000
G01 Z0
G00 Z2.0000
G00 X104.0000 Y-31.3200
G01 Z-0.8000
G01 Z0
G00 Z2.0000
G00 X104.0000 Y-28.7800
G01 Z-0.8000
G01 Z0
G00 Z2.0000
G00 X104.0000 Y-26.2400
G01 Z-0.8000
G01 Z0
G00 Z2.0000
G00 X104.0000 Y-23.7000
G01 Z-0.8000
G01 Z0
G00 Z2.0000
G00 X104.0000 Y-21.1600
G01 Z-0.8000
G01 Z0
G00 Z2.0000
G00 X104.0000 Y-18.6200
G01 Z-0.8000
G01 Z0
G00 Z2.0000
G00 X104.0000 Y-16.0800
G01 Z-0.8000
G01 Z0
G00 Z2.0000
G00 X104.0000 Y-13.5400
G01 Z-0.8000
G01 Z0
G00 Z2.0000
G00 X104.0000 Y-11.0000
G01 Z-0.8000
G01 Z0
G00 Z2.0000
G00 X96.3800 Y-31.3200
G01 Z-0.8000
G01 Z0
G00 Z2.0000
G00 X96.3800 Y-28.7800
G01 Z-0.8000
G01 Z0
G00 Z2.0000
G00 X96.3800 Y-26.2400
G01 Z-0.8000
G01 Z0
G00 Z2.0000
G00 X96.3800 Y-23.7000
G01 Z-0.8000
G01 Z0
G00 Z2.0000
G00 X96.3800 Y-21.1600
G01 Z-0.8000
G01 Z0
G00 Z2.0000
G00 X96.3800 Y-18.6200
G01 Z-0.8000
G01 Z0
G00 Z2.0000
G00 X96.3800 Y-16.0800
G01 Z-0.8000
G01 Z0
G00 Z2.0000
G00 X96.3800 Y-13.5400
G01 Z-0.8000
G01 Z0
G00 Z2.0000
G00 X96.3800 Y-11.0000
G01 Z-0.8000
G01 Z0
G00 Z2.0000
G00 X86.1900 Y-11.0000
G01 Z-0.8000
G01 Z0
G00 Z2.0000
G00 X86.0000 Y-26.0000
G01 Z-0.8000
G01 Z0
G00 Z2.0000
G00 X86.0000 Y-21.0000
G01 Z-0.8000
G01 Z0
G00 Z2.0000
G00 X86.0000 Y-6.0000
G01 Z-0.8000
G01 Z0
G00 Z2.0000
G00 X85.8100 Y-31.0000
G01 Z-0.8000
G01 Z0
G00 Z2.0000
G00 X85.8100 Y-16.0000
G01 Z-0.8000
G01 Z0
G00 Z2.0000
G00 X85.6200 Y-46.0000
G01 Z-0.8000
G01 Z0
G00 Z2.0000
G00 X85.6200 Y-41.0000
G01 Z-0.8000
G01 Z0
G00 Z2.0000
G00 X85.6200 Y-36.0000
G01 Z-0.8000
G01 Z0
G00 Z2.0000
G00 X78.5700 Y-11.0000
G01 Z-0.8000
G01 Z0
G00 Z2.0000
G00 X78.3800 Y-26.0000
G01 Z-0.8000
G01 Z0
G00 Z2.0000
G00 X78.3800 Y-21.0000
G01 Z-0.8000
G01 Z0
G00 Z2.0000
G00 X78.3800 Y-6.0000
G01 Z-0.8000
G01 Z0
G00 Z2.0000
G00 X78.1900 Y-31.0000
G01 Z-0.8000
G01 Z0
G00 Z2.0000
G00 X78.1900 Y-16.0000
G01 Z-0.8000
G01 Z0
G00 Z2.0000
G00 X78.0000 Y-46.0000
G01 Z-0.8000
G01 Z0
G00 Z2.0000
G00 X78.0000 Y-41.0000
G01 Z-0.8000
G01 Z0
G00 Z2.0000
G00 X78.0000 Y-36.0000
G01 Z-0.8000
G01 Z0
G00 Z2.0000
G00 X72.0000 Y-36.3200
G01 Z-0.8000
G01 Z0
G00 Z2.0000
G00 X72.0000 Y-33.7800
G01 Z-0.8000
G01 Z0
G00 Z2.0000
G00 X72.0000 Y-31.2400
G01 Z-0.8000
G01 Z0
G00 Z2.0000
G00 X72.0000 Y-28.7000
G01 Z-0.8000
G01 Z0
G00 Z2.0000
G00 X72.0000 Y-26.1600
G01 Z-0.8000
G01 Z0
G00 Z2.0000
G00 X72.0000 Y-23.6200
G01 Z-0.8000
G01 Z0
G00 Z2.0000
G00 X72.0000 Y-21.0800
G01 Z-0.8000
G01 Z0
G00 Z2.0000
G00 X72.0000 Y-18.5400
G01 Z-0.8000
G01 Z0
G00 Z2.0000
G00 X72.0000 Y-16.0000
G01 Z-0.8000
G01 Z0
G00 Z2.0000
G00 X64.3800 Y-36.3200
G01 Z-0.8000
G01 Z0
G00 Z2.0000
G00 X64.3800 Y-33.7800
G01 Z-0.8000
G01 Z0
G00 Z2.0000
G00 X64.3800 Y-31.2400
G01 Z-0.8000
G01 Z0
G00 Z2.0000
G00 X64.3800 Y-28.7000
G01 Z-0.8000
G01 Z0
G00 Z2.0000
G00 X64.3800 Y-26.1600
G01 Z-0.8000
G01 Z0
G00 Z2.0000
G00 X64.3800 Y-23.6200
G01 Z-0.8000
G01 Z0
G00 Z2.0000
G00 X64.3800 Y-21.0800
G01 Z-0.8000
G01 Z0
G00 Z2.0000
G00 X64.3800 Y-18.5400
G01 Z-0.8000
G01 Z0
G00 Z2.0000
G00 X64.3800 Y-16.0000
G01 Z-0.8000
G01 Z0
G00 Z2.0000
G00 X63.6200 Y-59.0000
G01 Z-0.8000
G01 Z0
G00 Z2.0000
G00 X57.3800 Y-16.0000
G01 Z-0.8000
G01 Z0
G00 Z2.0000
G00 X57.3800 Y-11.0000
G01 Z-0.8000
G01 Z0
G00 Z2.0000
G00 X57.1900 Y-26.0000
G01 Z-0.8000
G01 Z0
G00 Z2.0000
G00 X57.0000 Y-46.0000
G01 Z-0.8000
G01 Z0
G00 Z2.0000
G00 X57.0000 Y-20.8330
G01 Z-0.8000
G01 Z0
G00 Z2.0000
G00 X57.0000 Y-6.0000
G01 Z-0.8000
G01 Z0
G00 Z2.0000
G00 X56.8100 Y-31.0000
G01 Z-0.8000
G01 Z0
G00 Z2.0000
G00 X56.6200 Y-41.0000
G01 Z-0.8000
G01 Z0
G00 Z2.0000
G00 X56.6200 Y-36.0000
G01 Z-0.8000
G01 Z0
G00 Z2.0000
G00 X56.0000 Y-59.0000
G01 Z-0.8000
G01 Z0
G00 Z2.0000
G00 X49.7600 Y-16.0000
G01 Z-0.8000
G01 Z0
G00 Z2.0000
G00 X49.7600 Y-11.0000
G01 Z-0.8000
G01 Z0
G00 Z2.0000
G00 X49.5700 Y-26.0000
G01 Z-0.8000
G01 Z0
G00 Z2.0000
G00 X49.3800 Y-46.0000
G01 Z-0.8000
G01 Z0
G00 Z2.0000
G00 X49.3800 Y-20.8330
G01 Z-0.8000
G01 Z0
G00 Z2.0000
G00 X49.3800 Y-6.0000
G01 Z-0.8000
G01 Z0
G00 Z2.0000
G00 X49.1900 Y-31.0000
G01 Z-0.8000
G01 Z0
G00 Z2.0000
G00 X49.0000 Y-41.0000
G01 Z-0.8000
G01 Z0
G00 Z2.0000
G00 X49.0000 Y-36.0000
G01 Z-0.8000
G01 Z0
G00 Z2.0000
G00 X43.0000 Y-37.3200
G01 Z-0.8000
G01 Z0
G00 Z2.0000
G00 X43.0000 Y-34.7800
G01 Z-0.8000
G01 Z0
G00 Z2.0000
G00 X43.0000 Y-32.2400
G01 Z-0.8000
G01 Z0
G00 Z2.0000
G00 X43.0000 Y-29.7000
G01 Z-0.8000
G01 Z0
G00 Z2.0000
G00 X43.0000 Y-27.1600
G01 Z-0.8000
G01 Z0
G00 Z2.0000
G00 X43.0000 Y-24.6200
G01 Z-0.8000
G01 Z0
G00 Z2.0000
G00 X43.0000 Y-22.0800
G01 Z-0.8000
G01 Z0
G00 Z2.0000
G00 X43.0000 Y-19.5400
G01 Z-0.8000
G01 Z0
G00 Z2.0000
G00 X43.0000 Y-17.0000
G01 Z-0.8000
G01 Z0
G00 Z2.0000
G00 X35.3800 Y-37.3200
G01 Z-0.8000
G01 Z0
G00 Z2.0000
G00 X35.3800 Y-34.7800
G01 Z-0.8000
G01 Z0
G00 Z2.0000
G00 X35.3800 Y-32.2400
G01 Z-0.8000
G01 Z0
G00 Z2.0000
G00 X35.3800 Y-29.7000
G01 Z-0.8000
G01 Z0
G00 Z2.0000
G00 X35.3800 Y-27.1600
G01 Z-0.8000
G01 Z0
G00 Z2.0000
G00 X35.3800 Y-24.6200
G01 Z-0.8000
G01 Z0
G00 Z2.0000
G00 X35.3800 Y-22.0800
G01 Z-0.8000
G01 Z0
G00 Z2.0000
G00 X35.3800 Y-19.5400
G01 Z-0.8000
G01 Z0
G00 Z2.0000
G00 X35.3800 Y-17.0000
G01 Z-0.8000
G01 Z0
G00 Z2.0000
G00 X25.0000 Y-50.0000
G01 Z-0.8000
G01 Z0
G00 Z2.0000
G00 X25.0000 Y-45.0000
G01 Z-0.8000
G01 Z0
G00 Z2.0000
G00 X25.0000 Y-27.0000
G01 Z-0.8000
G01 Z0
G00 Z2.0000
G00 X25.0000 Y-22.0000
G01 Z-0.8000
G01 Z0
G00 Z2.0000
G00 X25.0000 Y-18.0000
G01 Z-0.8000
G01 Z0
G00 Z2.0000
G00 X25.0000 Y-14.0000
G01 Z-0.8000
G01 Z0
G00 Z2.0000
G00 X25.0000 Y-10.0000
G01 Z-0.8000
G01 Z0
G00 Z2.0000
G00 X24.8100 Y-40.0000
G01 Z-0.8000
G01 Z0
G00 Z2.0000
G00 X24.8100 Y-36.0000
G01 Z-0.8000
G01 Z0
G00 Z2.0000
G00 X24.8100 Y-32.0000
G01 Z-0.8000
G01 Z0
G00 Z2.0000
G00 X17.3800 Y-50.0000
G01 Z-0.8000
G01 Z0
G00 Z2.0000
G00 X17.3800 Y-45.0000
G01 Z-0.8000
G01 Z0
G00 Z2.0000
G00 X17.3800 Y-27.0000
G01 Z-0.8000
G01 Z0
G00 Z2.0000
G00 X17.3800 Y-22.0000
G01 Z-0.8000
G01 Z0
G00 Z2.0000
G00 X17.3800 Y-18.0000
G01 Z-0.8000
G01 Z0
G00 Z2.0000
G00 X17.3800 Y-14.0000
G01 Z-0.8000
G01 Z0
G00 Z2.0000
G00 X17.3800 Y-10.0000
G01 Z-0.8000
G01 Z0
G00 Z2.0000
G00 X17.1900 Y-40.0000
G01 Z-0.8000
G01 Z0
G00 Z2.0000
G00 X17.1900 Y-36.0000
G01 Z-0.8000
G01 Z0
G00 Z2.0000
G00 X17.1900 Y-32.0000
G01 Z-0.8000
G01 Z0
G00 Z2.0000
G00 X10.0000 Y-38.3200
G01 Z-0.8000
G01 Z0
G00 Z2.0000
G00 X10.0000 Y-35.7800
G01 Z-0.8000
G01 Z0
G00 Z2.0000
G00 X10.0000 Y-33.2400
G01 Z-0.8000
G01 Z0
G00 Z2.0000
G00 X10.0000 Y-30.7000
G01 Z-0.8000
G01 Z0
G00 Z2.0000
G00 X10.0000 Y-28.1600
G01 Z-0.8000
G01 Z0
G00 Z2.0000
G00 X10.0000 Y-25.6200
G01 Z-0.8000
G01 Z0
G00 Z2.0000
G00 X10.0000 Y-23.0800
G01 Z-0.8000
G01 Z0
G00 Z2.0000
G00 X10.0000 Y-20.5400
G01 Z-0.8000
G01 Z0
G00 Z2.0000
G00 X10.0000 Y-18.0000
G01 Z-0.8000
G01 Z0
G00 Z2.0000
G00 X2.3800 Y-38.3200
G01 Z-0.8000
G01 Z0
G00 Z2.0000
G00 X2.3800 Y-35.7800
G01 Z-0.8000
G01 Z0
G00 Z2.0000
G00 X2.3800 Y-33.2400
G01 Z-0.8000
G01 Z0
G00 Z2.0000
G00 X2.3800 Y-30.7000
G01 Z-0.8000
G01 Z0
G00 Z2.0000
G00 X2.3800 Y-28.1600
G01 Z-0.8000
G01 Z0
G00 Z2.0000
G00 X2.3800 Y-25.6200
G01 Z-0.8000
G01 Z0
G00 Z2.0000
G00 X2.3800 Y-23.0800
G01 Z-0.8000
G01 Z0
G00 Z2.0000
G00 X2.3800 Y-20.5400
G01 Z-0.8000
G01 Z0
G00 Z2.0000
M05
G00 Z0.50


