(G-CODE GENERATED BY FLATCAM v8.994 - www.flatcam.org - Version Date: 2020/11/7)

(Name: Decada-F_Cu.gbr_iso_combined_cnc)
(Type: G-code from Geometry)
(Units: MM)

(Created on Monday, 23 March 2026 at 00:12)

(This preprocessor is the default preprocessor used by FlatCAM.)
(It is made to work with MACH3 compatible motion controllers.)

(TOOL DIAMETER: 0.1353 mm)
(Feedrate_XY: 30.0 mm/min)
(Feedrate_Z: 25.0 mm/min)
(Feedrate rapids 1500.0 mm/min)

(Z_Cut: -0.1001 mm)
(Z_Move: 2.0 mm)
(Z Start: None mm)
(Z End: 15.0 mm)
(X,Y End: None mm)
(Steps per circle: 64)
(Preprocessor Geometry: default)

(X range:    1.5300 ...  124.3501  mm)
(Y range:  -60.5009 ...   -1.8999  mm)

(Spindle Speed: 10000.0 RPM)
G21
G90
G94

G01 F30.00

M5
G00 Z15.0000
G00 X0.0000 Y0.0000
T1
M6    
(MSG, Change to Tool Dia = 0.1353)
M0
G00 Z15.0000

M03 S10000.0
G01 F30.00
G00 X9.1500 Y-18.0000
G01 F25.00
G01 Z-0.1001
G01 F30.00
G01 X9.1541 Y-18.0833
G01 X9.1659 Y-18.1634
G01 X9.1866 Y-18.2467
G01 X9.2147 Y-18.3253
G01 X9.2493 Y-18.3985
G01 X9.2933 Y-18.4722
G01 X9.3429 Y-18.5392
G01 X9.3973 Y-18.5993
G01 X9.4608 Y-18.6571
G01 X9.5298 Y-18.7081
G01 X9.5993 Y-18.7496
G01 X9.6725 Y-18.7843
G01 X9.7533 Y-18.8134
G01 X9.8366 Y-18.8341
G01 X9.9167 Y-18.8459
G01 X9.9975 Y-18.8499
G01 X10.0858 Y-18.8456
G01 X10.1658 Y-18.8337
G01 X10.2444 Y-18.8141
G01 X10.3253 Y-18.7853
G01 X10.4007 Y-18.7496
G01 X10.4702 Y-18.7081
G01 X10.5402 Y-18.6563
G01 X10.6010 Y-18.6010
G01 X10.6586 Y-18.5373
G01 X10.7067 Y-18.4722
G01 X10.7484 Y-18.4028
G01 X10.7843 Y-18.3275
G01 X10.8134 Y-18.2467
G01 X10.8337 Y-18.1658
G01 X10.8459 Y-18.0833
G01 X10.8500 Y-18.0000
G01 X10.8459 Y-17.9167
G01 X10.8331 Y-17.8318
G01 X10.8126 Y-17.7509
G01 X10.7853 Y-17.6747
G01 X10.7507 Y-17.6015
G01 X10.7067 Y-17.5278
G01 X10.6571 Y-17.4608
G01 X10.6010 Y-17.3990
G01 X10.5411 Y-17.3445
G01 X10.5353 Y-17.3399
G01 X17.0806 Y-10.7946
G01 X17.1333 Y-10.8134
G01 X17.2154 Y-10.8339
G01 X17.2967 Y-10.8459
G01 X17.3812 Y-10.8500
G01 X17.4633 Y-10.8459
G01 X17.5458 Y-10.8337
G01 X17.6267 Y-10.8134
G01 X17.7053 Y-10.7853
G01 X17.7807 Y-10.7496
G01 X17.8522 Y-10.7067
G01 X17.9192 Y-10.6571
G01 X17.9802 Y-10.6019
G01 X18.0371 Y-10.5392
G01 X18.0861 Y-10.4732
G01 X18.1296 Y-10.4007
G01 X18.1536 Y-10.3501
G01 X20.8550 Y-10.3502
G01 X24.2054 Y-13.7006
G01 X24.1866 Y-13.7533
G01 X24.1661 Y-13.8354
G01 X24.1541 Y-13.9167
G01 X24.1500 Y-14.0012
G01 X24.1541 Y-14.0833
G01 X24.1663 Y-14.1658
G01 X24.1866 Y-14.2467
G01 X24.2152 Y-14.3264
G01 X24.2504 Y-14.4007
G01 X24.2933 Y-14.4722
G01 X24.3429 Y-14.5392
G01 X24.3990 Y-14.6010
G01 X24.4608 Y-14.6571
G01 X24.5278 Y-14.7067
G01 X24.5993 Y-14.7496
G01 X24.6736 Y-14.7848
G01 X24.7556 Y-14.8141
G01 X24.8342 Y-14.8337
G01 X24.9167 Y-14.8459
G01 X25.0025 Y-14.8499
G01 X25.0833 Y-14.8459
G01 X25.1634 Y-14.8341
G01 X25.2491 Y-14.8126
G01 X25.3253 Y-14.7853
G01 X25.3985 Y-14.7507
G01 X25.4722 Y-14.7067
G01 X25.5411 Y-14.6555
G01 X25.6010 Y-14.6010
G01 X25.6555 Y-14.5411
G01 X25.7067 Y-14.4722
G01 X25.7507 Y-14.3985
G01 X25.7853 Y-14.3253
G01 X25.8134 Y-14.2467
G01 X25.8341 Y-14.1634
G01 X25.8459 Y-14.0833
G01 X25.8500 Y-14.0000
G01 X25.8456 Y-13.9142
G01 X25.8337 Y-13.8342
G01 X25.8141 Y-13.7556
G01 X25.7853 Y-13.6747
G01 X25.7496 Y-13.5993
G01 X25.7067 Y-13.5278
G01 X25.6571 Y-13.4608
G01 X25.6010 Y-13.3990
G01 X25.5392 Y-13.3429
G01 X25.4722 Y-13.2933
G01 X25.3996 Y-13.2498
G01 X25.3253 Y-13.2147
G01 X25.2467 Y-13.1866
G01 X25.1658 Y-13.1663
G01 X25.0821 Y-13.1540
G01 X25.0000 Y-13.1500
G01 X24.9155 Y-13.1542
G01 X24.8318 Y-13.1669
G01 X24.7533 Y-13.1866
G01 X24.7006 Y-13.2054
G01 X21.2476 Y-9.7524
G01 X21.2202 Y-9.7278
G01 X21.1945 Y-9.7089
G01 X21.1651 Y-9.6912
G01 X21.1340 Y-9.6765
G01 X21.0993 Y-9.6643
G01 X21.0683 Y-9.6566
G01 X21.0368 Y-9.6518
G01 X21.0012 Y-9.6499
G01 X18.1536 Y-9.6498
G01 X18.1296 Y-9.5993
G01 X18.0861 Y-9.5268
G01 X18.0371 Y-9.4608
G01 X17.9802 Y-9.3981
G01 X17.9192 Y-9.3429
G01 X17.8522 Y-9.2933
G01 X17.7807 Y-9.2504
G01 X17.7064 Y-9.2152
G01 X17.6267 Y-9.1866
G01 X17.5482 Y-9.1669
G01 X17.4609 Y-9.1539
G01 X17.3800 Y-9.1500
G01 X17.2967 Y-9.1541
G01 X17.2142 Y-9.1663
G01 X17.1356 Y-9.1859
G01 X17.0547 Y-9.2147
G01 X16.9793 Y-9.2504
G01 X16.9078 Y-9.2933
G01 X16.8408 Y-9.3429
G01 X16.7790 Y-9.3990
G01 X16.7229 Y-9.4608
G01 X16.6733 Y-9.5278
G01 X16.6298 Y-9.6004
G01 X16.5947 Y-9.6747
G01 X16.5666 Y-9.7533
G01 X16.5463 Y-9.8342
G01 X16.5340 Y-9.9179
G01 X16.5300 Y-10.0000
G01 X16.5342 Y-10.0845
G01 X16.5469 Y-10.1682
G01 X16.5666 Y-10.2467
G01 X16.5854 Y-10.2994
G01 X9.7524 Y-17.1324
G01 X9.7278 Y-17.1598
G01 X9.7089 Y-17.1855
G01 X9.6958 Y-17.2071
G01 X9.6736 Y-17.2152
G01 X9.6004 Y-17.2498
G01 X9.5288 Y-17.2926
G01 X9.4608 Y-17.3429
G01 X9.3981 Y-17.3998
G01 X9.3429 Y-17.4608
G01 X9.2933 Y-17.5278
G01 X9.2504 Y-17.5993
G01 X9.2147 Y-17.6747
G01 X9.1866 Y-17.7533
G01 X9.1663 Y-17.8342
G01 X9.1541 Y-17.9167
G01 X9.1500 Y-18.0000
G00 Z2.0000
G00 X9.1500 Y-20.5412
G01 F25.00
G01 Z-0.1001
G01 F30.00
G01 X9.1541 Y-20.6233
G01 X9.1659 Y-20.7034
G01 X9.1866 Y-20.7867
G01 X9.2157 Y-20.8675
G01 X9.2504 Y-20.9407
G01 X9.2919 Y-21.0102
G01 X9.3429 Y-21.0792
G01 X9.4007 Y-21.1427
G01 X9.4608 Y-21.1971
G01 X9.5258 Y-21.2453
G01 X9.5993 Y-21.2896
G01 X9.6747 Y-21.3253
G01 X9.7509 Y-21.3526
G01 X9.8342 Y-21.3737
G01 X9.9191 Y-21.3861
G01 X10.0000 Y-21.3900
G01 X10.0809 Y-21.3861
G01 X10.1658 Y-21.3737
G01 X10.2491 Y-21.3526
G01 X10.3253 Y-21.3253
G01 X10.3985 Y-21.2907
G01 X10.4732 Y-21.2461
G01 X10.5392 Y-21.1971
G01 X10.5993 Y-21.1427
G01 X10.6563 Y-21.0802
G01 X10.7074 Y-21.0112
G01 X10.7496 Y-20.9407
G01 X10.7736 Y-20.8901
G01 X10.8412 Y-20.8901
G01 X10.8743 Y-20.8885
G01 X10.9083 Y-20.8834
G01 X10.9428 Y-20.8747
G01 X10.9762 Y-20.8625
G01 X11.0051 Y-20.8488
G01 X11.0325 Y-20.8325
G01 X11.0621 Y-20.8107
G01 X11.0876 Y-20.7876
G01 X17.0806 Y-14.7946
G01 X17.1333 Y-14.8134
G01 X17.2154 Y-14.8339
G01 X17.2967 Y-14.8459
G01 X17.3812 Y-14.8500
G01 X17.4633 Y-14.8459
G01 X17.5458 Y-14.8337
G01 X17.6267 Y-14.8134
G01 X17.7053 Y-14.7853
G01 X17.7807 Y-14.7496
G01 X17.8522 Y-14.7067
G01 X17.9192 Y-14.6571
G01 X17.9802 Y-14.6019
G01 X18.0371 Y-14.5392
G01 X18.0861 Y-14.4732
G01 X18.1296 Y-14.4007
G01 X18.1536 Y-14.3501
G01 X20.8550 Y-14.3502
G01 X24.2054 Y-17.7006
G01 X24.1866 Y-17.7533
G01 X24.1661 Y-17.8354
G01 X24.1541 Y-17.9167
G01 X24.1500 Y-18.0012
G01 X24.1541 Y-18.0833
G01 X24.1663 Y-18.1658
G01 X24.1866 Y-18.2467
G01 X24.2152 Y-18.3264
G01 X24.2504 Y-18.4007
G01 X24.2933 Y-18.4722
G01 X24.3429 Y-18.5392
G01 X24.3990 Y-18.6010
G01 X24.4608 Y-18.6571
G01 X24.5278 Y-18.7067
G01 X24.5993 Y-18.7496
G01 X24.6736 Y-18.7848
G01 X24.7556 Y-18.8141
G01 X24.8342 Y-18.8337
G01 X24.9142 Y-18.8456
G01 X25.0000 Y-18.8500
G01 X25.0858 Y-18.8456
G01 X25.1658 Y-18.8337
G01 X25.2444 Y-18.8141
G01 X25.3253 Y-18.7853
G01 X25.4028 Y-18.7484
G01 X25.4722 Y-18.7067
G01 X25.5392 Y-18.6571
G01 X25.6027 Y-18.5993
G01 X25.6571 Y-18.5392
G01 X25.7053 Y-18.4742
G01 X25.7496 Y-18.4007
G01 X25.7862 Y-18.3230
G01 X25.8134 Y-18.2467
G01 X25.8331 Y-18.1682
G01 X25.8459 Y-18.0833
G01 X25.8499 Y-17.9975
G01 X25.8459 Y-17.9167
G01 X25.8339 Y-17.8354
G01 X25.8134 Y-17.7533
G01 X25.7853 Y-17.6747
G01 X25.7496 Y-17.5993
G01 X25.7053 Y-17.5258
G01 X25.6571 Y-17.4608
G01 X25.6027 Y-17.4007
G01 X25.5411 Y-17.3445
G01 X25.4722 Y-17.2933
G01 X25.4018 Y-17.2510
G01 X25.3253 Y-17.2147
G01 X25.2467 Y-17.1866
G01 X25.1658 Y-17.1663
G01 X25.0821 Y-17.1540
G01 X25.0000 Y-17.1500
G01 X24.9155 Y-17.1542
G01 X24.8318 Y-17.1669
G01 X24.7533 Y-17.1866
G01 X24.7006 Y-17.2054
G01 X21.2476 Y-13.7524
G01 X21.2202 Y-13.7278
G01 X21.1945 Y-13.7089
G01 X21.1651 Y-13.6912
G01 X21.1340 Y-13.6765
G01 X21.0993 Y-13.6643
G01 X21.0683 Y-13.6566
G01 X21.0368 Y-13.6518
G01 X21.0012 Y-13.6499
G01 X18.1536 Y-13.6498
G01 X18.1296 Y-13.5993
G01 X18.0861 Y-13.5268
G01 X18.0371 Y-13.4608
G01 X17.9819 Y-13.3998
G01 X17.9173 Y-13.3414
G01 X17.8522 Y-13.2933
G01 X17.7796 Y-13.2498
G01 X17.7053 Y-13.2147
G01 X17.6267 Y-13.1866
G01 X17.5458 Y-13.1663
G01 X17.4658 Y-13.1544
G01 X17.3775 Y-13.1501
G01 X17.2967 Y-13.1541
G01 X17.2154 Y-13.1661
G01 X17.1333 Y-13.1866
G01 X17.0547 Y-13.2147
G01 X16.9793 Y-13.2504
G01 X16.9058 Y-13.2947
G01 X16.8408 Y-13.3429
G01 X16.7807 Y-13.3973
G01 X16.7245 Y-13.4589
G01 X16.6733 Y-13.5278
G01 X16.6310 Y-13.5982
G01 X16.5947 Y-13.6747
G01 X16.5666 Y-13.7533
G01 X16.5463 Y-13.8342
G01 X16.5340 Y-13.9179
G01 X16.5300 Y-14.0000
G01 X16.5342 Y-14.0845
G01 X16.5469 Y-14.1682
G01 X16.5666 Y-14.2467
G01 X16.5854 Y-14.2994
G01 X10.7481 Y-20.1367
G01 X10.7067 Y-20.0678
G01 X10.6571 Y-20.0008
G01 X10.6010 Y-19.9390
G01 X10.5411 Y-19.8845
G01 X10.4702 Y-19.8319
G01 X10.4007 Y-19.7904
G01 X10.3253 Y-19.7547
G01 X10.2467 Y-19.7266
G01 X10.1682 Y-19.7069
G01 X10.0809 Y-19.6939
G01 X10.0000 Y-19.6900
G01 X9.9167 Y-19.6941
G01 X9.8342 Y-19.7063
G01 X9.7556 Y-19.7259
G01 X9.6725 Y-19.7557
G01 X9.5993 Y-19.7904
G01 X9.5278 Y-19.8333
G01 X9.4608 Y-19.8829
G01 X9.4007 Y-19.9373
G01 X9.3414 Y-20.0027
G01 X9.2933 Y-20.0678
G01 X9.2504 Y-20.1393
G01 X9.2147 Y-20.2147
G01 X9.1874 Y-20.2909
G01 X9.1659 Y-20.3766
G01 X9.1541 Y-20.4567
G01 X9.1500 Y-20.5412
G00 Z2.0000
G00 X9.1500 Y-23.0812
G01 F25.00
G01 Z-0.1001
G01 F30.00
G01 X9.1541 Y-23.1633
G01 X9.1659 Y-23.2434
G01 X9.1866 Y-23.3267
G01 X9.2157 Y-23.4075
G01 X9.2504 Y-23.4807
G01 X9.2919 Y-23.5502
G01 X9.3445 Y-23.6211
G01 X9.3990 Y-23.6810
G01 X9.4589 Y-23.7355
G01 X9.5278 Y-23.7867
G01 X9.6015 Y-23.8307
G01 X9.6747 Y-23.8653
G01 X9.7509 Y-23.8926
G01 X9.8342 Y-23.9137
G01 X9.9167 Y-23.9259
G01 X9.9975 Y-23.9299
G01 X10.0833 Y-23.9259
G01 X10.1682 Y-23.9131
G01 X10.2467 Y-23.8934
G01 X10.3253 Y-23.8653
G01 X10.4028 Y-23.8284
G01 X10.4722 Y-23.7867
G01 X10.5383 Y-23.7378
G01 X10.6027 Y-23.6793
G01 X10.6571 Y-23.6192
G01 X10.7067 Y-23.5522
G01 X10.7496 Y-23.4807
G01 X10.7843 Y-23.4075
G01 X10.8137 Y-23.3256
G01 X10.8337 Y-23.2458
G01 X10.8456 Y-23.1658
G01 X10.8500 Y-23.0788
G01 X10.8459 Y-22.9967
G01 X10.8339 Y-22.9154
G01 X10.8134 Y-22.8333
G01 X10.7946 Y-22.7806
G01 X15.2250 Y-18.3501
G01 X16.6064 Y-18.3502
G01 X16.6304 Y-18.4007
G01 X16.6726 Y-18.4712
G01 X16.7237 Y-18.5402
G01 X16.7790 Y-18.6010
G01 X16.8389 Y-18.6555
G01 X16.9088 Y-18.7074
G01 X16.9793 Y-18.7496
G01 X17.0525 Y-18.7843
G01 X17.1333 Y-18.8134
G01 X17.2166 Y-18.8341
G01 X17.2967 Y-18.8459
G01 X17.3800 Y-18.8500
G01 X17.4633 Y-18.8459
G01 X17.5434 Y-18.8341
G01 X17.6267 Y-18.8134
G01 X17.7075 Y-18.7843
G01 X17.7807 Y-18.7496
G01 X17.8512 Y-18.7074
G01 X17.9211 Y-18.6555
G01 X17.9810 Y-18.6010
G01 X18.0363 Y-18.5402
G01 X18.0874 Y-18.4712
G01 X18.1296 Y-18.4007
G01 X18.1536 Y-18.3501
G01 X20.8550 Y-18.3502
G01 X24.2054 Y-21.7006
G01 X24.1866 Y-21.7533
G01 X24.1661 Y-21.8354
G01 X24.1541 Y-21.9167
G01 X24.1500 Y-21.9988
G01 X24.1541 Y-22.0833
G01 X24.1659 Y-22.1634
G01 X24.1870 Y-22.2479
G01 X24.2147 Y-22.3253
G01 X24.2504 Y-22.4007
G01 X24.2933 Y-22.4722
G01 X24.3414 Y-22.5373
G01 X24.4007 Y-22.6027
G01 X24.4608 Y-22.6571
G01 X24.5268 Y-22.7061
G01 X24.6015 Y-22.7507
G01 X24.6747 Y-22.7853
G01 X24.7533 Y-22.8134
G01 X24.8366 Y-22.8341
G01 X24.9167 Y-22.8459
G01 X24.9975 Y-22.8499
G01 X25.0833 Y-22.8459
G01 X25.1682 Y-22.8331
G01 X25.2467 Y-22.8134
G01 X25.3230 Y-22.7862
G01 X25.4028 Y-22.7484
G01 X25.4722 Y-22.7067
G01 X25.5373 Y-22.6586
G01 X25.6010 Y-22.6010
G01 X25.6586 Y-22.5373
G01 X25.7067 Y-22.4722
G01 X25.7496 Y-22.4007
G01 X25.7853 Y-22.3253
G01 X25.8126 Y-22.2491
G01 X25.8337 Y-22.1658
G01 X25.8461 Y-22.0809
G01 X25.8500 Y-22.0000
G01 X25.8460 Y-21.9179
G01 X25.8337 Y-21.8342
G01 X25.8134 Y-21.7533
G01 X25.7853 Y-21.6747
G01 X25.7484 Y-21.5972
G01 X25.7067 Y-21.5278
G01 X25.6586 Y-21.4627
G01 X25.6027 Y-21.4007
G01 X25.5392 Y-21.3429
G01 X25.4712 Y-21.2926
G01 X25.3985 Y-21.2493
G01 X25.3253 Y-21.2147
G01 X25.2491 Y-21.1874
G01 X25.1658 Y-21.1663
G01 X25.0845 Y-21.1542
G01 X25.0000 Y-21.1500
G01 X24.9155 Y-21.1542
G01 X24.8318 Y-21.1669
G01 X24.7533 Y-21.1866
G01 X24.7006 Y-21.2054
G01 X21.2476 Y-17.7524
G01 X21.2202 Y-17.7278
G01 X21.1945 Y-17.7089
G01 X21.1661 Y-17.6918
G01 X21.1340 Y-17.6765
G01 X21.0993 Y-17.6643
G01 X21.0683 Y-17.6566
G01 X21.0368 Y-17.6518
G01 X21.0012 Y-17.6499
G01 X18.1536 Y-17.6498
G01 X18.1296 Y-17.5993
G01 X18.0861 Y-17.5268
G01 X18.0371 Y-17.4608
G01 X17.9819 Y-17.3998
G01 X17.9173 Y-17.3414
G01 X17.8522 Y-17.2933
G01 X17.7818 Y-17.2510
G01 X17.7030 Y-17.2138
G01 X17.6267 Y-17.1866
G01 X17.5458 Y-17.1663
G01 X17.4609 Y-17.1539
G01 X17.3800 Y-17.1500
G01 X17.2979 Y-17.1540
G01 X17.2142 Y-17.1663
G01 X17.1309 Y-17.1874
G01 X17.0547 Y-17.2147
G01 X16.9815 Y-17.2493
G01 X16.9068 Y-17.2939
G01 X16.8408 Y-17.3429
G01 X16.7807 Y-17.3973
G01 X16.7237 Y-17.4598
G01 X16.6726 Y-17.5288
G01 X16.6304 Y-17.5993
G01 X16.6064 Y-17.6499
G01 X15.0788 Y-17.6499
G01 X15.0457 Y-17.6515
G01 X15.0141 Y-17.6562
G01 X14.9784 Y-17.6649
G01 X14.9460 Y-17.6765
G01 X14.9171 Y-17.6901
G01 X14.8835 Y-17.7103
G01 X14.8579 Y-17.7293
G01 X14.8324 Y-17.7524
G01 X10.2994 Y-22.2854
G01 X10.2467 Y-22.2666
G01 X10.1670 Y-22.2466
G01 X10.0821 Y-22.2340
G01 X10.0000 Y-22.2300
G01 X9.9191 Y-22.2339
G01 X9.8330 Y-22.2466
G01 X9.7533 Y-22.2666
G01 X9.6770 Y-22.2938
G01 X9.5993 Y-22.3304
G01 X9.5258 Y-22.3747
G01 X9.4608 Y-22.4229
G01 X9.3998 Y-22.4781
G01 X9.3429 Y-22.5408
G01 X9.2933 Y-22.6078
G01 X9.2504 Y-22.6793
G01 X9.2147 Y-22.7547
G01 X9.1866 Y-22.8333
G01 X9.1663 Y-22.9142
G01 X9.1541 Y-22.9967
G01 X9.1500 Y-23.0812
G00 Z2.0000
G00 X9.1500 Y-25.6212
G01 F25.00
G01 Z-0.1001
G01 F30.00
G01 X9.1541 Y-25.7033
G01 X9.1663 Y-25.7858
G01 X9.1866 Y-25.8667
G01 X9.2147 Y-25.9453
G01 X9.2504 Y-26.0207
G01 X9.2933 Y-26.0922
G01 X9.3429 Y-26.1592
G01 X9.3973 Y-26.2193
G01 X9.4627 Y-26.2786
G01 X9.5278 Y-26.3267
G01 X9.6015 Y-26.3707
G01 X9.6747 Y-26.4053
G01 X9.7533 Y-26.4334
G01 X9.8342 Y-26.4537
G01 X9.9167 Y-26.4659
G01 X10.0025 Y-26.4699
G01 X10.0833 Y-26.4659
G01 X10.1658 Y-26.4537
G01 X10.2467 Y-26.4334
G01 X10.3230 Y-26.4062
G01 X10.4018 Y-26.3690
G01 X10.4722 Y-26.3267
G01 X10.5373 Y-26.2786
G01 X10.6019 Y-26.2202
G01 X10.6571 Y-26.1592
G01 X10.7061 Y-26.0932
G01 X10.7496 Y-26.0207
G01 X10.7736 Y-25.9701
G01 X12.3800 Y-25.9701
G01 X12.4143 Y-25.9685
G01 X12.4459 Y-25.9638
G01 X12.4816 Y-25.9551
G01 X12.5162 Y-25.9425
G01 X12.5451 Y-25.9288
G01 X12.5725 Y-25.9125
G01 X12.6021 Y-25.8907
G01 X12.6276 Y-25.8676
G01 X16.1450 Y-22.3501
G01 X16.6064 Y-22.3502
G01 X16.6304 Y-22.4007
G01 X16.6726 Y-22.4712
G01 X16.7237 Y-22.5402
G01 X16.7790 Y-22.6010
G01 X16.8389 Y-22.6555
G01 X16.9088 Y-22.7074
G01 X16.9793 Y-22.7496
G01 X17.0525 Y-22.7843
G01 X17.1333 Y-22.8134
G01 X17.2166 Y-22.8341
G01 X17.2967 Y-22.8459
G01 X17.3800 Y-22.8500
G01 X17.4633 Y-22.8459
G01 X17.5434 Y-22.8341
G01 X17.6267 Y-22.8134
G01 X17.7075 Y-22.7843
G01 X17.7807 Y-22.7496
G01 X17.8512 Y-22.7074
G01 X17.9211 Y-22.6555
G01 X17.9810 Y-22.6010
G01 X18.0363 Y-22.5402
G01 X18.0874 Y-22.4712
G01 X18.1296 Y-22.4007
G01 X18.1536 Y-22.3501
G01 X19.8550 Y-22.3502
G01 X24.2054 Y-26.7006
G01 X24.1866 Y-26.7533
G01 X24.1661 Y-26.8354
G01 X24.1541 Y-26.9167
G01 X24.1500 Y-26.9988
G01 X24.1544 Y-27.0858
G01 X24.1663 Y-27.1658
G01 X24.1863 Y-27.2456
G01 X24.2157 Y-27.3275
G01 X24.2504 Y-27.4007
G01 X24.2933 Y-27.4722
G01 X24.3429 Y-27.5392
G01 X24.3973 Y-27.5993
G01 X24.4617 Y-27.6578
G01 X24.5278 Y-27.7067
G01 X24.5972 Y-27.7484
G01 X24.6747 Y-27.7853
G01 X24.7556 Y-27.8141
G01 X24.8342 Y-27.8337
G01 X24.9142 Y-27.8456
G01 X25.0000 Y-27.8500
G01 X25.0858 Y-27.8456
G01 X25.1658 Y-27.8337
G01 X25.2444 Y-27.8141
G01 X25.3253 Y-27.7853
G01 X25.4028 Y-27.7484
G01 X25.4722 Y-27.7067
G01 X25.5373 Y-27.6586
G01 X25.6010 Y-27.6010
G01 X25.6586 Y-27.5373
G01 X25.7067 Y-27.4722
G01 X25.7484 Y-27.4028
G01 X25.7853 Y-27.3253
G01 X25.8134 Y-27.2467
G01 X25.8331 Y-27.1682
G01 X25.8459 Y-27.0833
G01 X25.8500 Y-27.0000
G01 X25.8456 Y-26.9142
G01 X25.8331 Y-26.8318
G01 X25.8134 Y-26.7533
G01 X25.7862 Y-26.6770
G01 X25.7496 Y-26.5993
G01 X25.7067 Y-26.5278
G01 X25.6571 Y-26.4608
G01 X25.6002 Y-26.3981
G01 X25.5392 Y-26.3429
G01 X25.4742 Y-26.2947
G01 X25.4007 Y-26.2504
G01 X25.3230 Y-26.2138
G01 X25.2467 Y-26.1866
G01 X25.1670 Y-26.1666
G01 X25.0809 Y-26.1539
G01 X25.0000 Y-26.1500
G01 X24.9179 Y-26.1540
G01 X24.8330 Y-26.1666
G01 X24.7533 Y-26.1866
G01 X24.7006 Y-26.2054
G01 X20.2476 Y-21.7524
G01 X20.2221 Y-21.7293
G01 X20.1955 Y-21.7096
G01 X20.1629 Y-21.6901
G01 X20.1340 Y-21.6765
G01 X20.1016 Y-21.6649
G01 X20.0659 Y-21.6562
G01 X20.0343 Y-21.6515
G01 X20.0012 Y-21.6499
G01 X18.1536 Y-21.6498
G01 X18.1296 Y-21.5993
G01 X18.0874 Y-21.5288
G01 X18.0363 Y-21.4598
G01 X17.9793 Y-21.3973
G01 X17.9192 Y-21.3429
G01 X17.8532 Y-21.2939
G01 X17.7807 Y-21.2504
G01 X17.7030 Y-21.2138
G01 X17.6267 Y-21.1866
G01 X17.5482 Y-21.1669
G01 X17.4633 Y-21.1541
G01 X17.3775 Y-21.1501
G01 X17.2967 Y-21.1541
G01 X17.2142 Y-21.1663
G01 X17.1333 Y-21.1866
G01 X17.0570 Y-21.2138
G01 X16.9782 Y-21.2510
G01 X16.9078 Y-21.2933
G01 X16.8427 Y-21.3414
G01 X16.7781 Y-21.3998
G01 X16.7229 Y-21.4608
G01 X16.6739 Y-21.5268
G01 X16.6304 Y-21.5993
G01 X16.6064 Y-21.6499
G01 X16.0000 Y-21.6499
G01 X15.9657 Y-21.6515
G01 X15.9317 Y-21.6566
G01 X15.9007 Y-21.6643
G01 X15.8660 Y-21.6765
G01 X15.8328 Y-21.6924
G01 X15.8055 Y-21.7089
G01 X15.7788 Y-21.7286
G01 X15.7524 Y-21.7524
G01 X12.2350 Y-25.2699
G01 X10.7736 Y-25.2698
G01 X10.7496 Y-25.2193
G01 X10.7061 Y-25.1468
G01 X10.6571 Y-25.0808
G01 X10.6019 Y-25.0198
G01 X10.5373 Y-24.9614
G01 X10.4722 Y-24.9133
G01 X10.4018 Y-24.8710
G01 X10.3230 Y-24.8338
G01 X10.2467 Y-24.8066
G01 X10.1658 Y-24.7863
G01 X10.0833 Y-24.7741
G01 X10.0025 Y-24.7701
G01 X9.9155 Y-24.7742
G01 X9.8342 Y-24.7863
G01 X9.7533 Y-24.8066
G01 X9.6747 Y-24.8347
G01 X9.5993 Y-24.8704
G01 X9.5278 Y-24.9133
G01 X9.4608 Y-24.9629
G01 X9.3990 Y-25.0190
G01 X9.3445 Y-25.0789
G01 X9.2933 Y-25.1478
G01 X9.2516 Y-25.2172
G01 X9.2138 Y-25.2970
G01 X9.1866 Y-25.3733
G01 X9.1663 Y-25.4542
G01 X9.1541 Y-25.5367
G01 X9.1500 Y-25.6212
G00 Z2.0000
G00 X9.1500 Y-28.1600
G01 F25.00
G01 Z-0.1001
G01 F30.00
G01 X9.1541 Y-28.2433
G01 X9.1663 Y-28.3258
G01 X9.1866 Y-28.4067
G01 X9.2147 Y-28.4853
G01 X9.2504 Y-28.5607
G01 X9.2933 Y-28.6322
G01 X9.3429 Y-28.6992
G01 X9.4007 Y-28.7627
G01 X9.4627 Y-28.8186
G01 X9.5278 Y-28.8667
G01 X9.5972 Y-28.9084
G01 X9.6747 Y-28.9453
G01 X9.7509 Y-28.9726
G01 X9.8342 Y-28.9937
G01 X9.9167 Y-29.0059
G01 X10.0000 Y-29.0100
G01 X10.0821 Y-29.0060
G01 X10.1658 Y-28.9937
G01 X10.2467 Y-28.9734
G01 X10.3253 Y-28.9453
G01 X10.4028 Y-28.9084
G01 X10.4722 Y-28.8667
G01 X10.5373 Y-28.8186
G01 X10.5993 Y-28.7627
G01 X10.6571 Y-28.6992
G01 X10.7053 Y-28.6342
G01 X10.7496 Y-28.5607
G01 X10.7862 Y-28.4830
G01 X10.8134 Y-28.4067
G01 X10.8331 Y-28.3282
G01 X10.8458 Y-28.2445
G01 X10.8500 Y-28.1600
G01 X10.8458 Y-28.0755
G01 X10.8331 Y-27.9918
G01 X10.8134 Y-27.9133
G01 X10.7946 Y-27.8606
G01 X11.3050 Y-27.3501
G01 X16.6064 Y-27.3502
G01 X16.6304 Y-27.4007
G01 X16.6726 Y-27.4712
G01 X16.7237 Y-27.5402
G01 X16.7790 Y-27.6010
G01 X16.8389 Y-27.6555
G01 X16.9088 Y-27.7074
G01 X16.9793 Y-27.7496
G01 X17.0525 Y-27.7843
G01 X17.1333 Y-27.8134
G01 X17.2166 Y-27.8341
G01 X17.2967 Y-27.8459
G01 X17.3800 Y-27.8500
G01 X17.4633 Y-27.8459
G01 X17.5434 Y-27.8341
G01 X17.6267 Y-27.8134
G01 X17.7075 Y-27.7843
G01 X17.7807 Y-27.7496
G01 X17.8512 Y-27.7074
G01 X17.9211 Y-27.6555
G01 X17.9810 Y-27.6010
G01 X18.0363 Y-27.5402
G01 X18.0874 Y-27.4712
G01 X18.1296 Y-27.4007
G01 X18.1536 Y-27.3501
G01 X19.6650 Y-27.3502
G01 X24.0154 Y-31.7006
G01 X23.9966 Y-31.7533
G01 X23.9761 Y-31.8354
G01 X23.9641 Y-31.9167
G01 X23.9600 Y-31.9988
G01 X23.9644 Y-32.0858
G01 X23.9763 Y-32.1658
G01 X23.9963 Y-32.2456
G01 X24.0257 Y-32.3275
G01 X24.0604 Y-32.4007
G01 X24.1033 Y-32.4722
G01 X24.1529 Y-32.5392
G01 X24.2073 Y-32.5993
G01 X24.2708 Y-32.6571
G01 X24.3378 Y-32.7067
G01 X24.4115 Y-32.7507
G01 X24.4847 Y-32.7853
G01 X24.5609 Y-32.8126
G01 X24.6442 Y-32.8337
G01 X24.7291 Y-32.8461
G01 X24.8100 Y-32.8500
G01 X24.8909 Y-32.8461
G01 X24.9758 Y-32.8337
G01 X25.0591 Y-32.8126
G01 X25.1353 Y-32.7853
G01 X25.2085 Y-32.7507
G01 X25.2802 Y-32.7081
G01 X25.3492 Y-32.6571
G01 X25.4127 Y-32.5993
G01 X25.4671 Y-32.5392
G01 X25.5153 Y-32.4742
G01 X25.5596 Y-32.4007
G01 X25.5962 Y-32.3230
G01 X25.6234 Y-32.2467
G01 X25.6431 Y-32.1682
G01 X25.6559 Y-32.0833
G01 X25.6599 Y-31.9975
G01 X25.6559 Y-31.9167
G01 X25.6441 Y-31.8366
G01 X25.6234 Y-31.7533
G01 X25.5943 Y-31.6725
G01 X25.5596 Y-31.5993
G01 X25.5181 Y-31.5298
G01 X25.4671 Y-31.4608
G01 X25.4102 Y-31.3981
G01 X25.3492 Y-31.3429
G01 X25.2842 Y-31.2947
G01 X25.2107 Y-31.2504
G01 X25.1330 Y-31.2138
G01 X25.0567 Y-31.1866
G01 X24.9770 Y-31.1666
G01 X24.8909 Y-31.1539
G01 X24.8100 Y-31.1500
G01 X24.7279 Y-31.1540
G01 X24.6430 Y-31.1666
G01 X24.5633 Y-31.1866
G01 X24.5106 Y-31.2054
G01 X20.0576 Y-26.7524
G01 X20.0302 Y-26.7278
G01 X20.0045 Y-26.7089
G01 X19.9751 Y-26.6912
G01 X19.9417 Y-26.6756
G01 X19.9116 Y-26.6649
G01 X19.8807 Y-26.6571
G01 X19.8443 Y-26.6515
G01 X19.8100 Y-26.6499
G01 X18.1536 Y-26.6498
G01 X18.1296 Y-26.5993
G01 X18.0874 Y-26.5288
G01 X18.0363 Y-26.4598
G01 X17.9810 Y-26.3990
G01 X17.9211 Y-26.3445
G01 X17.8512 Y-26.2926
G01 X17.7807 Y-26.2504
G01 X17.7075 Y-26.2157
G01 X17.6267 Y-26.1866
G01 X17.5434 Y-26.1659
G01 X17.4633 Y-26.1541
G01 X17.3800 Y-26.1500
G01 X17.2967 Y-26.1541
G01 X17.2166 Y-26.1659
G01 X17.1333 Y-26.1866
G01 X17.0525 Y-26.2157
G01 X16.9793 Y-26.2504
G01 X16.9088 Y-26.2926
G01 X16.8389 Y-26.3445
G01 X16.7790 Y-26.3990
G01 X16.7237 Y-26.4598
G01 X16.6726 Y-26.5288
G01 X16.6304 Y-26.5993
G01 X16.6064 Y-26.6499
G01 X11.1600 Y-26.6499
G01 X11.1232 Y-26.6518
G01 X11.0917 Y-26.6566
G01 X11.0607 Y-26.6643
G01 X11.0260 Y-26.6765
G01 X10.9949 Y-26.6912
G01 X10.9675 Y-26.7075
G01 X10.9369 Y-26.7301
G01 X10.9124 Y-26.7524
G01 X10.2994 Y-27.3654
G01 X10.2467 Y-27.3466
G01 X10.1670 Y-27.3266
G01 X10.0821 Y-27.3140
G01 X9.9975 Y-27.3101
G01 X9.9167 Y-27.3141
G01 X9.8354 Y-27.3261
G01 X9.7533 Y-27.3466
G01 X9.6725 Y-27.3757
G01 X9.5993 Y-27.4104
G01 X9.5298 Y-27.4519
G01 X9.4617 Y-27.5022
G01 X9.3990 Y-27.5590
G01 X9.3429 Y-27.6208
G01 X9.2933 Y-27.6878
G01 X9.2493 Y-27.7615
G01 X9.2147 Y-27.8347
G01 X9.1874 Y-27.9109
G01 X9.1669 Y-27.9918
G01 X9.1541 Y-28.0767
G01 X9.1500 Y-28.1600
G00 Z2.0000
G00 X9.1500 Y-30.7000
G01 F25.00
G01 Z-0.1001
G01 F30.00
G01 X9.1541 Y-30.7833
G01 X9.1669 Y-30.8682
G01 X9.1874 Y-30.9491
G01 X9.2147 Y-31.0253
G01 X9.2493 Y-31.0985
G01 X9.2933 Y-31.1722
G01 X9.3429 Y-31.2392
G01 X9.3990 Y-31.3010
G01 X9.4617 Y-31.3578
G01 X9.5298 Y-31.4081
G01 X9.5993 Y-31.4496
G01 X9.6725 Y-31.4843
G01 X9.7533 Y-31.5134
G01 X9.8354 Y-31.5339
G01 X9.9167 Y-31.5459
G01 X9.9975 Y-31.5499
G01 X10.0821 Y-31.5460
G01 X10.1670 Y-31.5334
G01 X10.2467 Y-31.5134
G01 X10.2994 Y-31.4946
G01 X11.0524 Y-32.2476
G01 X11.0760 Y-32.2691
G01 X11.1075 Y-32.2925
G01 X11.1349 Y-32.3088
G01 X11.1660 Y-32.3235
G01 X11.2007 Y-32.3357
G01 X11.2317 Y-32.3434
G01 X11.2632 Y-32.3482
G01 X11.3000 Y-32.3501
G01 X16.4164 Y-32.3502
G01 X16.4404 Y-32.4007
G01 X16.4826 Y-32.4712
G01 X16.5337 Y-32.5402
G01 X16.5890 Y-32.6010
G01 X16.6489 Y-32.6555
G01 X16.7188 Y-32.7074
G01 X16.7893 Y-32.7496
G01 X16.8625 Y-32.7843
G01 X16.9433 Y-32.8134
G01 X17.0266 Y-32.8341
G01 X17.1067 Y-32.8459
G01 X17.1900 Y-32.8500
G01 X17.2733 Y-32.8459
G01 X17.3534 Y-32.8341
G01 X17.4367 Y-32.8134
G01 X17.5175 Y-32.7843
G01 X17.5907 Y-32.7496
G01 X17.6612 Y-32.7074
G01 X17.7311 Y-32.6555
G01 X17.7910 Y-32.6010
G01 X17.8463 Y-32.5402
G01 X17.8974 Y-32.4712
G01 X17.9396 Y-32.4007
G01 X17.9636 Y-32.3501
G01 X20.6650 Y-32.3502
G01 X24.0154 Y-35.7006
G01 X23.9966 Y-35.7533
G01 X23.9761 Y-35.8354
G01 X23.9641 Y-35.9167
G01 X23.9600 Y-35.9988
G01 X23.9644 Y-36.0858
G01 X23.9763 Y-36.1658
G01 X23.9963 Y-36.2456
G01 X24.0257 Y-36.3275
G01 X24.0604 Y-36.4007
G01 X24.1033 Y-36.4722
G01 X24.1529 Y-36.5392
G01 X24.2073 Y-36.5993
G01 X24.2717 Y-36.6578
G01 X24.3398 Y-36.7081
G01 X24.4093 Y-36.7496
G01 X24.4825 Y-36.7843
G01 X24.5633 Y-36.8134
G01 X24.6442 Y-36.8337
G01 X24.7267 Y-36.8459
G01 X24.8125 Y-36.8499
G01 X24.8933 Y-36.8459
G01 X24.9734 Y-36.8341
G01 X25.0567 Y-36.8134
G01 X25.1353 Y-36.7853
G01 X25.2128 Y-36.7484
G01 X25.2822 Y-36.7067
G01 X25.3473 Y-36.6586
G01 X25.4110 Y-36.6010
G01 X25.4671 Y-36.5392
G01 X25.5181 Y-36.4702
G01 X25.5596 Y-36.4007
G01 X25.5943 Y-36.3275
G01 X25.6230 Y-36.2479
G01 X25.6441 Y-36.1634
G01 X25.6559 Y-36.0833
G01 X25.6599 Y-36.0025
G01 X25.6559 Y-35.9167
G01 X25.6431 Y-35.8318
G01 X25.6234 Y-35.7533
G01 X25.5962 Y-35.6770
G01 X25.5596 Y-35.5993
G01 X25.5167 Y-35.5278
G01 X25.4686 Y-35.4627
G01 X25.4102 Y-35.3981
G01 X25.3492 Y-35.3429
G01 X25.2842 Y-35.2947
G01 X25.2107 Y-35.2504
G01 X25.1330 Y-35.2138
G01 X25.0567 Y-35.1866
G01 X24.9770 Y-35.1666
G01 X24.8909 Y-35.1539
G01 X24.8100 Y-35.1500
G01 X24.7279 Y-35.1540
G01 X24.6430 Y-35.1666
G01 X24.5633 Y-35.1866
G01 X24.5106 Y-35.2054
G01 X21.0576 Y-31.7524
G01 X21.0321 Y-31.7293
G01 X21.0025 Y-31.7075
G01 X20.9751 Y-31.6912
G01 X20.9462 Y-31.6775
G01 X20.9128 Y-31.6653
G01 X20.8759 Y-31.6562
G01 X20.8443 Y-31.6515
G01 X20.8100 Y-31.6499
G01 X17.9636 Y-31.6498
G01 X17.9396 Y-31.5993
G01 X17.8974 Y-31.5288
G01 X17.8463 Y-31.4598
G01 X17.7910 Y-31.3990
G01 X17.7311 Y-31.3445
G01 X17.6612 Y-31.2926
G01 X17.5907 Y-31.2504
G01 X17.5175 Y-31.2157
G01 X17.4367 Y-31.1866
G01 X17.3534 Y-31.1659
G01 X17.2733 Y-31.1541
G01 X17.1900 Y-31.1500
G01 X17.1067 Y-31.1541
G01 X17.0266 Y-31.1659
G01 X16.9433 Y-31.1866
G01 X16.8625 Y-31.2157
G01 X16.7893 Y-31.2504
G01 X16.7188 Y-31.2926
G01 X16.6489 Y-31.3445
G01 X16.5890 Y-31.3990
G01 X16.5337 Y-31.4598
G01 X16.4826 Y-31.5288
G01 X16.4404 Y-31.5993
G01 X16.4164 Y-31.6499
G01 X11.4450 Y-31.6498
G01 X10.7946 Y-30.9994
G01 X10.8134 Y-30.9467
G01 X10.8334 Y-30.8670
G01 X10.8460 Y-30.7821
G01 X10.8499 Y-30.6975
G01 X10.8459 Y-30.6167
G01 X10.8339 Y-30.5354
G01 X10.8134 Y-30.4533
G01 X10.7843 Y-30.3725
G01 X10.7484 Y-30.2972
G01 X10.7067 Y-30.2278
G01 X10.6586 Y-30.1627
G01 X10.6010 Y-30.0990
G01 X10.5392 Y-30.0429
G01 X10.4722 Y-29.9933
G01 X10.4007 Y-29.9504
G01 X10.3253 Y-29.9147
G01 X10.2467 Y-29.8866
G01 X10.1658 Y-29.8663
G01 X10.0821 Y-29.8540
G01 X10.0000 Y-29.8500
G01 X9.9167 Y-29.8541
G01 X9.8342 Y-29.8663
G01 X9.7509 Y-29.8874
G01 X9.6747 Y-29.9147
G01 X9.5972 Y-29.9516
G01 X9.5278 Y-29.9933
G01 X9.4627 Y-30.0414
G01 X9.4007 Y-30.0973
G01 X9.3429 Y-30.1608
G01 X9.2933 Y-30.2278
G01 X9.2504 Y-30.2993
G01 X9.2147 Y-30.3747
G01 X9.1866 Y-30.4533
G01 X9.1663 Y-30.5342
G01 X9.1541 Y-30.6167
G01 X9.1500 Y-30.7000
G00 Z2.0000
G00 X9.1500 Y-33.2412
G01 F25.00
G01 Z-0.1001
G01 F30.00
G01 X9.1541 Y-33.3233
G01 X9.1669 Y-33.4082
G01 X9.1874 Y-33.4891
G01 X9.2147 Y-33.5653
G01 X9.2493 Y-33.6385
G01 X9.2933 Y-33.7122
G01 X9.3429 Y-33.7792
G01 X9.3990 Y-33.8410
G01 X9.4598 Y-33.8963
G01 X9.5278 Y-33.9467
G01 X9.6015 Y-33.9907
G01 X9.6747 Y-34.0253
G01 X9.7509 Y-34.0526
G01 X9.8354 Y-34.0739
G01 X9.9167 Y-34.0859
G01 X9.9975 Y-34.0899
G01 X10.0821 Y-34.0860
G01 X10.1670 Y-34.0734
G01 X10.2467 Y-34.0534
G01 X10.2994 Y-34.0346
G01 X12.5133 Y-36.2485
G01 X12.5398 Y-36.2722
G01 X12.5655 Y-36.2911
G01 X12.5928 Y-36.3076
G01 X12.6260 Y-36.3235
G01 X12.6595 Y-36.3354
G01 X12.6917 Y-36.3434
G01 X12.7232 Y-36.3482
G01 X12.7600 Y-36.3501
G01 X16.4164 Y-36.3502
G01 X16.4404 Y-36.4007
G01 X16.4826 Y-36.4712
G01 X16.5337 Y-36.5402
G01 X16.5890 Y-36.6010
G01 X16.6489 Y-36.6555
G01 X16.7188 Y-36.7074
G01 X16.7893 Y-36.7496
G01 X16.8625 Y-36.7843
G01 X16.9433 Y-36.8134
G01 X17.0266 Y-36.8341
G01 X17.1067 Y-36.8459
G01 X17.1900 Y-36.8500
G01 X17.2733 Y-36.8459
G01 X17.3534 Y-36.8341
G01 X17.4367 Y-36.8134
G01 X17.5175 Y-36.7843
G01 X17.5907 Y-36.7496
G01 X17.6612 Y-36.7074
G01 X17.7311 Y-36.6555
G01 X17.7910 Y-36.6010
G01 X17.8463 Y-36.5402
G01 X17.8974 Y-36.4712
G01 X17.9396 Y-36.4007
G01 X17.9636 Y-36.3501
G01 X20.6650 Y-36.3502
G01 X24.0154 Y-39.7006
G01 X23.9966 Y-39.7533
G01 X23.9761 Y-39.8354
G01 X23.9641 Y-39.9167
G01 X23.9600 Y-39.9988
G01 X23.9644 Y-40.0858
G01 X23.9763 Y-40.1658
G01 X23.9963 Y-40.2456
G01 X24.0257 Y-40.3275
G01 X24.0604 Y-40.4007
G01 X24.1033 Y-40.4722
G01 X24.1529 Y-40.5392
G01 X24.2073 Y-40.5993
G01 X24.2708 Y-40.6571
G01 X24.3378 Y-40.7067
G01 X24.4115 Y-40.7507
G01 X24.4847 Y-40.7853
G01 X24.5609 Y-40.8126
G01 X24.6418 Y-40.8331
G01 X24.7267 Y-40.8459
G01 X24.8100 Y-40.8500
G01 X24.8933 Y-40.8459
G01 X24.9782 Y-40.8331
G01 X25.0591 Y-40.8126
G01 X25.1353 Y-40.7853
G01 X25.2085 Y-40.7507
G01 X25.2822 Y-40.7067
G01 X25.3492 Y-40.6571
G01 X25.4110 Y-40.6010
G01 X25.4686 Y-40.5373
G01 X25.5167 Y-40.4722
G01 X25.5584 Y-40.4028
G01 X25.5948 Y-40.3264
G01 X25.6241 Y-40.2444
G01 X25.6437 Y-40.1658
G01 X25.6559 Y-40.0833
G01 X25.6599 Y-39.9975
G01 X25.6559 Y-39.9167
G01 X25.6437 Y-39.8342
G01 X25.6226 Y-39.7509
G01 X25.5953 Y-39.6747
G01 X25.5596 Y-39.5993
G01 X25.5167 Y-39.5278
G01 X25.4686 Y-39.4627
G01 X25.4110 Y-39.3990
G01 X25.3473 Y-39.3414
G01 X25.2822 Y-39.2933
G01 X25.2107 Y-39.2504
G01 X25.1330 Y-39.2138
G01 X25.0567 Y-39.1866
G01 X24.9770 Y-39.1666
G01 X24.8909 Y-39.1539
G01 X24.8100 Y-39.1500
G01 X24.7279 Y-39.1540
G01 X24.6430 Y-39.1666
G01 X24.5633 Y-39.1866
G01 X24.5106 Y-39.2054
G01 X21.0576 Y-35.7524
G01 X21.0321 Y-35.7293
G01 X21.0045 Y-35.7089
G01 X20.9751 Y-35.6912
G01 X20.9451 Y-35.6770
G01 X20.9116 Y-35.6649
G01 X20.8783 Y-35.6566
G01 X20.8443 Y-35.6515
G01 X20.8100 Y-35.6499
G01 X17.9636 Y-35.6498
G01 X17.9396 Y-35.5993
G01 X17.8974 Y-35.5288
G01 X17.8463 Y-35.4598
G01 X17.7910 Y-35.3990
G01 X17.7311 Y-35.3445
G01 X17.6612 Y-35.2926
G01 X17.5907 Y-35.2504
G01 X17.5175 Y-35.2157
G01 X17.4367 Y-35.1866
G01 X17.3534 Y-35.1659
G01 X17.2733 Y-35.1541
G01 X17.1900 Y-35.1500
G01 X17.1067 Y-35.1541
G01 X17.0266 Y-35.1659
G01 X16.9433 Y-35.1866
G01 X16.8625 Y-35.2157
G01 X16.7893 Y-35.2504
G01 X16.7188 Y-35.2926
G01 X16.6489 Y-35.3445
G01 X16.5890 Y-35.3990
G01 X16.5337 Y-35.4598
G01 X16.4826 Y-35.5288
G01 X16.4404 Y-35.5993
G01 X16.4164 Y-35.6499
G01 X12.9050 Y-35.6498
G01 X10.7946 Y-33.5394
G01 X10.8134 Y-33.4867
G01 X10.8339 Y-33.4046
G01 X10.8459 Y-33.3233
G01 X10.8500 Y-33.2412
G01 X10.8459 Y-33.1567
G01 X10.8341 Y-33.0766
G01 X10.8130 Y-32.9921
G01 X10.7853 Y-32.9147
G01 X10.7496 Y-32.8393
G01 X10.7067 Y-32.7678
G01 X10.6586 Y-32.7027
G01 X10.5993 Y-32.6373
G01 X10.5392 Y-32.5829
G01 X10.4712 Y-32.5326
G01 X10.4007 Y-32.4904
G01 X10.3275 Y-32.4557
G01 X10.2467 Y-32.4266
G01 X10.1634 Y-32.4059
G01 X10.0833 Y-32.3941
G01 X10.0025 Y-32.3901
G01 X9.9167 Y-32.3941
G01 X9.8318 Y-32.4069
G01 X9.7533 Y-32.4266
G01 X9.6770 Y-32.4538
G01 X9.5993 Y-32.4904
G01 X9.5278 Y-32.5333
G01 X9.4627 Y-32.5814
G01 X9.3990 Y-32.6390
G01 X9.3414 Y-32.7027
G01 X9.2933 Y-32.7678
G01 X9.2516 Y-32.8372
G01 X9.2147 Y-32.9147
G01 X9.1859 Y-32.9956
G01 X9.1663 Y-33.0742
G01 X9.1544 Y-33.1542
G01 X9.1500 Y-33.2412
G00 Z2.0000
G00 X9.1500 Y-35.7800
G01 F25.00
G01 Z-0.1001
G01 F30.00
G01 X9.1541 Y-35.8633
G01 X9.1663 Y-35.9458
G01 X9.1866 Y-36.0267
G01 X9.2147 Y-36.1053
G01 X9.2504 Y-36.1807
G01 X9.2933 Y-36.2522
G01 X9.3429 Y-36.3192
G01 X9.4007 Y-36.3827
G01 X9.4608 Y-36.4371
G01 X9.5258 Y-36.4853
G01 X9.5993 Y-36.5296
G01 X9.6770 Y-36.5662
G01 X9.7533 Y-36.5934
G01 X9.8330 Y-36.6134
G01 X9.9191 Y-36.6261
G01 X10.0000 Y-36.6300
G01 X10.0821 Y-36.6260
G01 X10.1670 Y-36.6134
G01 X10.2467 Y-36.5934
G01 X10.2994 Y-36.5746
G01 X13.9724 Y-40.2476
G01 X13.9998 Y-40.2722
G01 X14.0255 Y-40.2911
G01 X14.0539 Y-40.3082
G01 X14.0860 Y-40.3235
G01 X14.1207 Y-40.3357
G01 X14.1517 Y-40.3434
G01 X14.1832 Y-40.3482
G01 X14.2188 Y-40.3501
G01 X16.4164 Y-40.3502
G01 X16.4404 Y-40.4007
G01 X16.4826 Y-40.4712
G01 X16.5337 Y-40.5402
G01 X16.5890 Y-40.6010
G01 X16.6489 Y-40.6555
G01 X16.7188 Y-40.7074
G01 X16.7893 Y-40.7496
G01 X16.8625 Y-40.7843
G01 X16.9433 Y-40.8134
G01 X17.0266 Y-40.8341
G01 X17.1067 Y-40.8459
G01 X17.1900 Y-40.8500
G01 X17.2733 Y-40.8459
G01 X17.3534 Y-40.8341
G01 X17.4367 Y-40.8134
G01 X17.5175 Y-40.7843
G01 X17.5907 Y-40.7496
G01 X17.6612 Y-40.7074
G01 X17.7311 Y-40.6555
G01 X17.7910 Y-40.6010
G01 X17.8463 Y-40.5402
G01 X17.8974 Y-40.4712
G01 X17.9396 Y-40.4007
G01 X17.9636 Y-40.3501
G01 X19.8550 Y-40.3502
G01 X24.2054 Y-44.7006
G01 X24.1866 Y-44.7533
G01 X24.1661 Y-44.8354
G01 X24.1541 Y-44.9167
G01 X24.1500 Y-44.9988
G01 X24.1544 Y-45.0858
G01 X24.1663 Y-45.1658
G01 X24.1863 Y-45.2456
G01 X24.2157 Y-45.3275
G01 X24.2504 Y-45.4007
G01 X24.2933 Y-45.4722
G01 X24.3445 Y-45.5411
G01 X24.3990 Y-45.6010
G01 X24.4598 Y-45.6563
G01 X24.5278 Y-45.7067
G01 X24.5993 Y-45.7496
G01 X24.6747 Y-45.7853
G01 X24.7556 Y-45.8141
G01 X24.8366 Y-45.8341
G01 X24.9167 Y-45.8459
G01 X24.9975 Y-45.8499
G01 X25.0833 Y-45.8459
G01 X25.1658 Y-45.8337
G01 X25.2467 Y-45.8134
G01 X25.3253 Y-45.7853
G01 X25.4007 Y-45.7496
G01 X25.4742 Y-45.7053
G01 X25.5392 Y-45.6571
G01 X25.5993 Y-45.6027
G01 X25.6555 Y-45.5411
G01 X25.7067 Y-45.4722
G01 X25.7490 Y-45.4018
G01 X25.7862 Y-45.3230
G01 X25.8134 Y-45.2467
G01 X25.8337 Y-45.1658
G01 X25.8459 Y-45.0833
G01 X25.8499 Y-45.0025
G01 X25.8456 Y-44.9142
G01 X25.8337 Y-44.8342
G01 X25.8134 Y-44.7533
G01 X25.7853 Y-44.6747
G01 X25.7507 Y-44.6015
G01 X25.7053 Y-44.5258
G01 X25.6571 Y-44.4608
G01 X25.6010 Y-44.3990
G01 X25.5373 Y-44.3414
G01 X25.4722 Y-44.2933
G01 X25.4007 Y-44.2504
G01 X25.3230 Y-44.2138
G01 X25.2467 Y-44.1866
G01 X25.1670 Y-44.1666
G01 X25.0809 Y-44.1539
G01 X25.0000 Y-44.1500
G01 X24.9179 Y-44.1540
G01 X24.8330 Y-44.1666
G01 X24.7533 Y-44.1866
G01 X24.7006 Y-44.2054
G01 X20.2476 Y-39.7524
G01 X20.2202 Y-39.7278
G01 X20.1945 Y-39.7089
G01 X20.1661 Y-39.6918
G01 X20.1340 Y-39.6765
G01 X20.0993 Y-39.6643
G01 X20.0683 Y-39.6566
G01 X20.0368 Y-39.6518
G01 X20.0012 Y-39.6499
G01 X17.9636 Y-39.6498
G01 X17.9396 Y-39.5993
G01 X17.8974 Y-39.5288
G01 X17.8463 Y-39.4598
G01 X17.7910 Y-39.3990
G01 X17.7311 Y-39.3445
G01 X17.6612 Y-39.2926
G01 X17.5907 Y-39.2504
G01 X17.5175 Y-39.2157
G01 X17.4367 Y-39.1866
G01 X17.3534 Y-39.1659
G01 X17.2733 Y-39.1541
G01 X17.1900 Y-39.1500
G01 X17.1067 Y-39.1541
G01 X17.0266 Y-39.1659
G01 X16.9433 Y-39.1866
G01 X16.8625 Y-39.2157
G01 X16.7893 Y-39.2504
G01 X16.7188 Y-39.2926
G01 X16.6489 Y-39.3445
G01 X16.5890 Y-39.3990
G01 X16.5337 Y-39.4598
G01 X16.4826 Y-39.5288
G01 X16.4404 Y-39.5993
G01 X16.4164 Y-39.6499
G01 X14.3650 Y-39.6498
G01 X10.7946 Y-36.0794
G01 X10.8134 Y-36.0267
G01 X10.8339 Y-35.9446
G01 X10.8459 Y-35.8633
G01 X10.8500 Y-35.7812
G01 X10.8456 Y-35.6942
G01 X10.8337 Y-35.6142
G01 X10.8137 Y-35.5344
G01 X10.7843 Y-35.4525
G01 X10.7496 Y-35.3793
G01 X10.7067 Y-35.3078
G01 X10.6571 Y-35.2408
G01 X10.6027 Y-35.1807
G01 X10.5373 Y-35.1214
G01 X10.4722 Y-35.0733
G01 X10.4028 Y-35.0316
G01 X10.3253 Y-34.9947
G01 X10.2467 Y-34.9666
G01 X10.1682 Y-34.9469
G01 X10.0833 Y-34.9341
G01 X9.9975 Y-34.9301
G01 X9.9167 Y-34.9341
G01 X9.8342 Y-34.9463
G01 X9.7509 Y-34.9674
G01 X9.6747 Y-34.9947
G01 X9.6015 Y-35.0293
G01 X9.5258 Y-35.0747
G01 X9.4608 Y-35.1229
G01 X9.4007 Y-35.1773
G01 X9.3429 Y-35.2408
G01 X9.2919 Y-35.3098
G01 X9.2504 Y-35.3793
G01 X9.2157 Y-35.4525
G01 X9.1866 Y-35.5333
G01 X9.1659 Y-35.6166
G01 X9.1541 Y-35.6967
G01 X9.1500 Y-35.7800
G00 Z2.0000
G00 X9.1500 Y-38.8700
G01 F25.00
G01 Z-0.1001
G01 F30.00
G01 X9.1514 Y-38.8994
G01 X9.1558 Y-38.9285
G01 X9.1629 Y-38.9571
G01 X9.1728 Y-38.9848
G01 X9.1854 Y-39.0114
G01 X9.2006 Y-39.0367
G01 X9.2181 Y-39.0603
G01 X9.2362 Y-39.0804
G01 X9.2597 Y-39.1019
G01 X9.2833 Y-39.1194
G01 X9.3086 Y-39.1346
G01 X9.3330 Y-39.1462
G01 X9.3653 Y-39.1577
G01 X9.3915 Y-39.1642
G01 X9.4230 Y-39.1687
G01 X9.4500 Y-39.1700
G01 X10.5500 Y-39.1700
G01 X10.5794 Y-39.1686
G01 X10.6061 Y-39.1647
G01 X10.6394 Y-39.1563
G01 X10.6648 Y-39.1472
G01 X10.6914 Y-39.1346
G01 X10.7187 Y-39.1180
G01 X10.7403 Y-39.1019
G01 X10.7604 Y-39.0838
G01 X10.7834 Y-39.0584
G01 X10.7994 Y-39.0367
G01 X10.8134 Y-39.0136
G01 X10.8272 Y-38.9848
G01 X10.8363 Y-38.9594
G01 X10.8381 Y-38.9533
G01 X16.5854 Y-44.7006
G01 X16.5666 Y-44.7533
G01 X16.5461 Y-44.8354
G01 X16.5341 Y-44.9167
G01 X16.5300 Y-45.0012
G01 X16.5341 Y-45.0833
G01 X16.5463 Y-45.1658
G01 X16.5666 Y-45.2467
G01 X16.5947 Y-45.3253
G01 X16.6304 Y-45.4007
G01 X16.6733 Y-45.4722
G01 X16.7229 Y-45.5392
G01 X16.7781 Y-45.6002
G01 X16.8408 Y-45.6571
G01 X16.9068 Y-45.7061
G01 X16.9793 Y-45.7496
G01 X17.0299 Y-45.7736
G01 X17.0298 Y-49.2264
G01 X16.9793 Y-49.2504
G01 X16.9068 Y-49.2939
G01 X16.8408 Y-49.3429
G01 X16.7798 Y-49.3981
G01 X16.7214 Y-49.4627
G01 X16.6733 Y-49.5278
G01 X16.6298 Y-49.6004
G01 X16.5947 Y-49.6747
G01 X16.5666 Y-49.7533
G01 X16.5463 Y-49.8342
G01 X16.5344 Y-49.9142
G01 X16.5301 Y-50.0025
G01 X16.5341 Y-50.0833
G01 X16.5463 Y-50.1658
G01 X16.5674 Y-50.2491
G01 X16.5947 Y-50.3253
G01 X16.6293 Y-50.3985
G01 X16.6733 Y-50.4722
G01 X16.7229 Y-50.5392
G01 X16.7790 Y-50.6010
G01 X16.8427 Y-50.6586
G01 X16.9078 Y-50.7067
G01 X16.9772 Y-50.7484
G01 X17.0547 Y-50.7853
G01 X17.1333 Y-50.8134
G01 X17.2166 Y-50.8341
G01 X17.2967 Y-50.8459
G01 X17.3775 Y-50.8499
G01 X17.4633 Y-50.8459
G01 X17.5482 Y-50.8331
G01 X17.6267 Y-50.8134
G01 X17.7030 Y-50.7862
G01 X17.7807 Y-50.7496
G01 X17.8542 Y-50.7053
G01 X17.9192 Y-50.6571
G01 X17.9793 Y-50.6027
G01 X18.0355 Y-50.5411
G01 X18.0867 Y-50.4722
G01 X18.1296 Y-50.4007
G01 X18.1653 Y-50.3253
G01 X18.1941 Y-50.2444
G01 X18.2141 Y-50.1634
G01 X18.2259 Y-50.0833
G01 X18.2299 Y-50.0025
G01 X18.2256 Y-49.9142
G01 X18.2137 Y-49.8342
G01 X18.1934 Y-49.7533
G01 X18.1643 Y-49.6725
G01 X18.1296 Y-49.5993
G01 X18.0874 Y-49.5288
G01 X18.0355 Y-49.4589
G01 X17.9810 Y-49.3990
G01 X17.9202 Y-49.3437
G01 X17.8512 Y-49.2926
G01 X17.7807 Y-49.2504
G01 X17.7301 Y-49.2264
G01 X17.7302 Y-45.7736
G01 X17.7807 Y-45.7496
G01 X17.8502 Y-45.7081
G01 X17.9183 Y-45.6578
G01 X17.9810 Y-45.6010
G01 X18.0363 Y-45.5402
G01 X18.0867 Y-45.4722
G01 X18.1296 Y-45.4007
G01 X18.1653 Y-45.3253
G01 X18.1937 Y-45.2456
G01 X18.2137 Y-45.1658
G01 X18.2261 Y-45.0809
G01 X18.2299 Y-44.9975
G01 X18.2259 Y-44.9167
G01 X18.2141 Y-44.8366
G01 X18.1934 Y-44.7533
G01 X18.1653 Y-44.6747
G01 X18.1296 Y-44.5993
G01 X18.0853 Y-44.5258
G01 X18.0371 Y-44.4608
G01 X17.9810 Y-44.3990
G01 X17.9192 Y-44.3429
G01 X17.8542 Y-44.2947
G01 X17.7785 Y-44.2493
G01 X17.7053 Y-44.2147
G01 X17.6279 Y-44.1870
G01 X17.5434 Y-44.1659
G01 X17.4633 Y-44.1541
G01 X17.3788 Y-44.1500
G01 X17.2967 Y-44.1541
G01 X17.2154 Y-44.1661
G01 X17.1333 Y-44.1866
G01 X17.0806 Y-44.2054
G01 X10.9476 Y-38.0724
G01 X10.9221 Y-38.0493
G01 X10.8955 Y-38.0296
G01 X10.8661 Y-38.0118
G01 X10.8500 Y-38.0040
G01 X10.8499 Y-37.7675
G01 X10.8486 Y-37.7406
G01 X10.8447 Y-37.7139
G01 X10.8374 Y-37.6841
G01 X10.8272 Y-37.6552
G01 X10.8146 Y-37.6286
G01 X10.7994 Y-37.6033
G01 X10.7834 Y-37.5816
G01 X10.7604 Y-37.5562
G01 X10.7403 Y-37.5381
G01 X10.7156 Y-37.5199
G01 X10.6914 Y-37.5054
G01 X10.6670 Y-37.4938
G01 X10.6371 Y-37.4829
G01 X10.6061 Y-37.4753
G01 X10.5794 Y-37.4714
G01 X10.5525 Y-37.4701
G01 X9.4488 Y-37.4700
G01 X9.4206 Y-37.4714
G01 X9.3915 Y-37.4758
G01 X9.3629 Y-37.4829
G01 X9.3375 Y-37.4920
G01 X9.3064 Y-37.5066
G01 X9.2833 Y-37.5206
G01 X9.2587 Y-37.5389
G01 X9.2379 Y-37.5579
G01 X9.2181 Y-37.5797
G01 X9.2006 Y-37.6033
G01 X9.1854 Y-37.6286
G01 X9.1728 Y-37.6552
G01 X9.1629 Y-37.6829
G01 X9.1558 Y-37.7115
G01 X9.1513 Y-37.7418
G01 X9.1500 Y-37.7700
G01 X9.1500 Y-38.8700
G00 Z2.0000
G00 X1.5300 Y-38.3200
G01 F25.00
G01 Z-0.1001
G01 F30.00
G01 X1.5341 Y-38.4033
G01 X1.5463 Y-38.4858
G01 X1.5666 Y-38.5667
G01 X1.5947 Y-38.6453
G01 X1.6304 Y-38.7207
G01 X1.6733 Y-38.7922
G01 X1.7229 Y-38.8592
G01 X1.7790 Y-38.9210
G01 X1.8408 Y-38.9771
G01 X1.9078 Y-39.0267
G01 X1.9793 Y-39.0696
G01 X2.0547 Y-39.1053
G01 X2.1333 Y-39.1334
G01 X2.2142 Y-39.1537
G01 X2.2967 Y-39.1659
G01 X2.3800 Y-39.1700
G01 X2.4633 Y-39.1659
G01 X2.5458 Y-39.1537
G01 X2.6267 Y-39.1334
G01 X2.7053 Y-39.1053
G01 X2.7807 Y-39.0696
G01 X2.8522 Y-39.0267
G01 X2.9192 Y-38.9771
G01 X2.9810 Y-38.9210
G01 X3.0371 Y-38.8592
G01 X3.0867 Y-38.7922
G01 X3.1296 Y-38.7207
G01 X3.1653 Y-38.6453
G01 X3.1934 Y-38.5667
G01 X3.2137 Y-38.4858
G01 X3.2259 Y-38.4033
G01 X3.2299 Y-38.3225
G01 X3.2256 Y-38.2342
G01 X3.2137 Y-38.1542
G01 X3.1934 Y-38.0733
G01 X3.1643 Y-37.9925
G01 X3.1296 Y-37.9193
G01 X3.0874 Y-37.8488
G01 X3.0355 Y-37.7789
G01 X2.9810 Y-37.7190
G01 X2.9202 Y-37.6637
G01 X2.8512 Y-37.6126
G01 X2.7807 Y-37.5704
G01 X2.7301 Y-37.5464
G01 X2.7302 Y-36.5536
G01 X2.7807 Y-36.5296
G01 X2.8512 Y-36.4874
G01 X2.9202 Y-36.4363
G01 X2.9810 Y-36.3810
G01 X3.0355 Y-36.3211
G01 X3.0874 Y-36.2512
G01 X3.1296 Y-36.1807
G01 X3.1643 Y-36.1075
G01 X3.1934 Y-36.0267
G01 X3.2141 Y-35.9434
G01 X3.2259 Y-35.8633
G01 X3.2300 Y-35.7800
G01 X3.2259 Y-35.6967
G01 X3.2141 Y-35.6166
G01 X3.1934 Y-35.5333
G01 X3.1643 Y-35.4525
G01 X3.1296 Y-35.3793
G01 X3.0874 Y-35.3088
G01 X3.0355 Y-35.2389
G01 X2.9810 Y-35.1790
G01 X2.9202 Y-35.1237
G01 X2.8512 Y-35.0726
G01 X2.7807 Y-35.0304
G01 X2.7301 Y-35.0064
G01 X2.7302 Y-34.0136
G01 X2.7807 Y-33.9896
G01 X2.8512 Y-33.9474
G01 X2.9202 Y-33.8963
G01 X2.9810 Y-33.8410
G01 X3.0355 Y-33.7811
G01 X3.0874 Y-33.7112
G01 X3.1296 Y-33.6407
G01 X3.1643 Y-33.5675
G01 X3.1934 Y-33.4867
G01 X3.2141 Y-33.4034
G01 X3.2259 Y-33.3233
G01 X3.2300 Y-33.2400
G01 X3.2259 Y-33.1567
G01 X3.2141 Y-33.0766
G01 X3.1934 Y-32.9933
G01 X3.1643 Y-32.9125
G01 X3.1296 Y-32.8393
G01 X3.0874 Y-32.7688
G01 X3.0355 Y-32.6989
G01 X2.9810 Y-32.6390
G01 X2.9202 Y-32.5837
G01 X2.8512 Y-32.5326
G01 X2.7807 Y-32.4904
G01 X2.7301 Y-32.4664
G01 X2.7302 Y-31.4736
G01 X2.7807 Y-31.4496
G01 X2.8512 Y-31.4074
G01 X2.9202 Y-31.3563
G01 X2.9810 Y-31.3010
G01 X3.0355 Y-31.2411
G01 X3.0874 Y-31.1712
G01 X3.1296 Y-31.1007
G01 X3.1643 Y-31.0275
G01 X3.1934 Y-30.9467
G01 X3.2141 Y-30.8634
G01 X3.2259 Y-30.7833
G01 X3.2300 Y-30.7000
G01 X3.2259 Y-30.6167
G01 X3.2141 Y-30.5366
G01 X3.1934 Y-30.4533
G01 X3.1643 Y-30.3725
G01 X3.1296 Y-30.2993
G01 X3.0874 Y-30.2288
G01 X3.0355 Y-30.1589
G01 X2.9810 Y-30.0990
G01 X2.9202 Y-30.0437
G01 X2.8512 Y-29.9926
G01 X2.7807 Y-29.9504
G01 X2.7301 Y-29.9264
G01 X2.7302 Y-28.9336
G01 X2.7807 Y-28.9096
G01 X2.8512 Y-28.8674
G01 X2.9202 Y-28.8163
G01 X2.9810 Y-28.7610
G01 X3.0355 Y-28.7011
G01 X3.0874 Y-28.6312
G01 X3.1296 Y-28.5607
G01 X3.1643 Y-28.4875
G01 X3.1934 Y-28.4067
G01 X3.2141 Y-28.3234
G01 X3.2259 Y-28.2433
G01 X3.2300 Y-28.1600
G01 X3.2259 Y-28.0767
G01 X3.2141 Y-27.9966
G01 X3.1934 Y-27.9133
G01 X3.1643 Y-27.8325
G01 X3.1296 Y-27.7593
G01 X3.0874 Y-27.6888
G01 X3.0355 Y-27.6189
G01 X2.9810 Y-27.5590
G01 X2.9202 Y-27.5037
G01 X2.8512 Y-27.4526
G01 X2.7807 Y-27.4104
G01 X2.7301 Y-27.3864
G01 X2.7302 Y-26.3936
G01 X2.7807 Y-26.3696
G01 X2.8512 Y-26.3274
G01 X2.9202 Y-26.2763
G01 X2.9810 Y-26.2210
G01 X3.0355 Y-26.1611
G01 X3.0874 Y-26.0912
G01 X3.1296 Y-26.0207
G01 X3.1643 Y-25.9475
G01 X3.1934 Y-25.8667
G01 X3.2141 Y-25.7834
G01 X3.2259 Y-25.7033
G01 X3.2300 Y-25.6200
G01 X3.2259 Y-25.5367
G01 X3.2141 Y-25.4566
G01 X3.1934 Y-25.3733
G01 X3.1643 Y-25.2925
G01 X3.1296 Y-25.2193
G01 X3.0874 Y-25.1488
G01 X3.0355 Y-25.0789
G01 X2.9810 Y-25.0190
G01 X2.9202 Y-24.9637
G01 X2.8512 Y-24.9126
G01 X2.7807 Y-24.8704
G01 X2.7301 Y-24.8464
G01 X2.7302 Y-23.8536
G01 X2.7807 Y-23.8296
G01 X2.8512 Y-23.7874
G01 X2.9202 Y-23.7363
G01 X2.9810 Y-23.6810
G01 X3.0355 Y-23.6211
G01 X3.0874 Y-23.5512
G01 X3.1296 Y-23.4807
G01 X3.1643 Y-23.4075
G01 X3.1934 Y-23.3267
G01 X3.2141 Y-23.2434
G01 X3.2259 Y-23.1633
G01 X3.2300 Y-23.0800
G01 X3.2259 Y-22.9967
G01 X3.2141 Y-22.9166
G01 X3.1934 Y-22.8333
G01 X3.1643 Y-22.7525
G01 X3.1296 Y-22.6793
G01 X3.0874 Y-22.6088
G01 X3.0355 Y-22.5389
G01 X2.9810 Y-22.4790
G01 X2.9202 Y-22.4237
G01 X2.8512 Y-22.3726
G01 X2.7807 Y-22.3304
G01 X2.7301 Y-22.3064
G01 X2.7302 Y-21.3136
G01 X2.7807 Y-21.2896
G01 X2.8512 Y-21.2474
G01 X2.9202 Y-21.1963
G01 X2.9810 Y-21.1410
G01 X3.0355 Y-21.0811
G01 X3.0874 Y-21.0112
G01 X3.1296 Y-20.9407
G01 X3.1643 Y-20.8675
G01 X3.1934 Y-20.7867
G01 X3.2141 Y-20.7034
G01 X3.2259 Y-20.6233
G01 X3.2300 Y-20.5400
G01 X3.2259 Y-20.4567
G01 X3.2141 Y-20.3766
G01 X3.1934 Y-20.2933
G01 X3.1643 Y-20.2125
G01 X3.1296 Y-20.1393
G01 X3.0874 Y-20.0688
G01 X3.0355 Y-19.9989
G01 X2.9810 Y-19.9390
G01 X2.9202 Y-19.8837
G01 X2.8512 Y-19.8326
G01 X2.7807 Y-19.7904
G01 X2.7301 Y-19.7664
G01 X2.7302 Y-18.7736
G01 X2.7807 Y-18.7496
G01 X2.8512 Y-18.7074
G01 X2.9202 Y-18.6563
G01 X2.9810 Y-18.6010
G01 X3.0355 Y-18.5411
G01 X3.0874 Y-18.4712
G01 X3.1296 Y-18.4007
G01 X3.1643 Y-18.3275
G01 X3.1934 Y-18.2467
G01 X3.2141 Y-18.1634
G01 X3.2259 Y-18.0833
G01 X3.2300 Y-18.0000
G01 X3.2259 Y-17.9167
G01 X3.2141 Y-17.8366
G01 X3.1934 Y-17.7533
G01 X3.1643 Y-17.6725
G01 X3.1296 Y-17.5993
G01 X3.0874 Y-17.5288
G01 X3.0355 Y-17.4589
G01 X2.9810 Y-17.3990
G01 X2.9202 Y-17.3437
G01 X2.8512 Y-17.2926
G01 X2.7807 Y-17.2504
G01 X2.7301 Y-17.2264
G01 X2.7302 Y-10.7650
G01 X8.1450 Y-5.3501
G01 X21.8550 Y-5.3502
G01 X24.6499 Y-8.1450
G01 X24.6498 Y-9.2264
G01 X24.5993 Y-9.2504
G01 X24.5288 Y-9.2926
G01 X24.4598 Y-9.3437
G01 X24.3973 Y-9.4007
G01 X24.3429 Y-9.4608
G01 X24.2939 Y-9.5268
G01 X24.2493 Y-9.6015
G01 X24.2147 Y-9.6747
G01 X24.1874 Y-9.7509
G01 X24.1663 Y-9.8342
G01 X24.1540 Y-9.9179
G01 X24.1501 Y-10.0025
G01 X24.1541 Y-10.0833
G01 X24.1659 Y-10.1634
G01 X24.1866 Y-10.2467
G01 X24.2147 Y-10.3253
G01 X24.2504 Y-10.4007
G01 X24.2947 Y-10.4742
G01 X24.3429 Y-10.5392
G01 X24.3973 Y-10.5993
G01 X24.4598 Y-10.6563
G01 X24.5278 Y-10.7067
G01 X24.5993 Y-10.7496
G01 X24.6747 Y-10.7853
G01 X24.7533 Y-10.8134
G01 X24.8342 Y-10.8337
G01 X24.9167 Y-10.8459
G01 X25.0000 Y-10.8500
G01 X25.0833 Y-10.8459
G01 X25.1682 Y-10.8331
G01 X25.2467 Y-10.8134
G01 X25.3230 Y-10.7862
G01 X25.4007 Y-10.7496
G01 X25.4732 Y-10.7061
G01 X25.5392 Y-10.6571
G01 X25.5993 Y-10.6027
G01 X25.6563 Y-10.5402
G01 X25.7074 Y-10.4712
G01 X25.7496 Y-10.4007
G01 X25.7736 Y-10.3501
G01 X27.8550 Y-10.3502
G01 X28.6499 Y-11.1450
G01 X28.6499 Y-43.0000
G01 X28.6515 Y-43.0343
G01 X28.6562 Y-43.0659
G01 X28.6649 Y-43.1016
G01 X28.6765 Y-43.1340
G01 X28.6901 Y-43.1629
G01 X28.7096 Y-43.1955
G01 X28.7293 Y-43.2221
G01 X28.7524 Y-43.2476
G01 X31.7524 Y-46.2476
G01 X31.7779 Y-46.2707
G01 X31.8075 Y-46.2925
G01 X31.8349 Y-46.3088
G01 X31.8638 Y-46.3225
G01 X31.8972 Y-46.3347
G01 X31.9341 Y-46.3438
G01 X31.9657 Y-46.3485
G01 X32.0000 Y-46.3501
G01 X38.0000 Y-46.3501
G01 X38.0355 Y-46.3483
G01 X38.0683 Y-46.3434
G01 X38.1016 Y-46.3351
G01 X38.1340 Y-46.3235
G01 X38.1629 Y-46.3099
G01 X38.1965 Y-46.2897
G01 X38.2221 Y-46.2707
G01 X38.2476 Y-46.2476
G01 X43.0000 Y-41.4952
G01 X47.7524 Y-46.2476
G01 X47.7779 Y-46.2707
G01 X47.8065 Y-46.2918
G01 X47.8371 Y-46.3099
G01 X47.8660 Y-46.3235
G01 X47.8960 Y-46.3343
G01 X47.9317 Y-46.3434
G01 X47.9669 Y-46.3486
G01 X48.0000 Y-46.3501
G01 X48.6064 Y-46.3502
G01 X48.6304 Y-46.4007
G01 X48.6739 Y-46.4732
G01 X48.7229 Y-46.5392
G01 X48.7781 Y-46.6002
G01 X48.8427 Y-46.6586
G01 X48.9078 Y-46.7067
G01 X48.9782 Y-46.7490
G01 X49.0570 Y-46.7862
G01 X49.1333 Y-46.8134
G01 X49.2142 Y-46.8337
G01 X49.2991 Y-46.8461
G01 X49.3800 Y-46.8500
G01 X49.4609 Y-46.8461
G01 X49.5482 Y-46.8331
G01 X49.6267 Y-46.8134
G01 X49.7053 Y-46.7853
G01 X49.7807 Y-46.7496
G01 X49.8502 Y-46.7081
G01 X49.9211 Y-46.6555
G01 X49.9810 Y-46.6010
G01 X50.0371 Y-46.5392
G01 X50.0867 Y-46.4722
G01 X50.1284 Y-46.4028
G01 X50.1662 Y-46.3230
G01 X50.1934 Y-46.2467
G01 X50.2139 Y-46.1646
G01 X50.2259 Y-46.0833
G01 X50.2300 Y-46.0000
G01 X50.2259 Y-45.9167
G01 X50.2137 Y-45.8342
G01 X50.1934 Y-45.7533
G01 X50.1653 Y-45.6747
G01 X50.1296 Y-45.5993
G01 X50.0867 Y-45.5278
G01 X50.0371 Y-45.4608
G01 X49.9810 Y-45.3990
G01 X49.9192 Y-45.3429
G01 X49.8522 Y-45.2933
G01 X49.7807 Y-45.2504
G01 X49.7053 Y-45.2147
G01 X49.6267 Y-45.1866
G01 X49.5482 Y-45.1669
G01 X49.4633 Y-45.1541
G01 X49.3825 Y-45.1501
G01 X49.2942 Y-45.1544
G01 X49.2142 Y-45.1663
G01 X49.1333 Y-45.1866
G01 X49.0547 Y-45.2147
G01 X48.9804 Y-45.2498
G01 X48.9078 Y-45.2933
G01 X48.8427 Y-45.3414
G01 X48.7781 Y-45.3998
G01 X48.7229 Y-45.4608
G01 X48.6739 Y-45.5268
G01 X48.6304 Y-45.5993
G01 X48.6064 Y-45.6499
G01 X48.1450 Y-45.6498
G01 X43.3501 Y-40.8550
G01 X43.3502 Y-38.1700
G01 X43.5500 Y-38.1700
G01 X43.5794 Y-38.1686
G01 X43.6085 Y-38.1642
G01 X43.6371 Y-38.1571
G01 X43.6648 Y-38.1472
G01 X43.6914 Y-38.1346
G01 X43.7187 Y-38.1180
G01 X43.7403 Y-38.1019
G01 X43.7604 Y-38.0838
G01 X43.7819 Y-38.0603
G01 X43.7994 Y-38.0367
G01 X43.8157 Y-38.0092
G01 X43.8272 Y-37.9848
G01 X43.8363 Y-37.9594
G01 X43.8442 Y-37.9285
G01 X43.8487 Y-37.8970
G01 X43.8500 Y-37.8700
G01 X43.8500 Y-36.7700
G01 X43.8486 Y-36.7406
G01 X43.8445 Y-36.7127
G01 X43.8363 Y-36.6806
G01 X43.8272 Y-36.6552
G01 X43.8146 Y-36.6286
G01 X43.7994 Y-36.6033
G01 X43.7834 Y-36.5816
G01 X43.7621 Y-36.5579
G01 X43.7403 Y-36.5381
G01 X43.7187 Y-36.5220
G01 X43.6914 Y-36.5054
G01 X43.6648 Y-36.4928
G01 X43.6394 Y-36.4837
G01 X43.6061 Y-36.4753
G01 X43.5794 Y-36.4714
G01 X43.5500 Y-36.4700
G01 X42.4500 Y-36.4700
G01 X42.4206 Y-36.4714
G01 X42.3927 Y-36.4755
G01 X42.3606 Y-36.4837
G01 X42.3352 Y-36.4928
G01 X42.3086 Y-36.5054
G01 X42.2833 Y-36.5206
G01 X42.2616 Y-36.5366
G01 X42.2379 Y-36.5579
G01 X42.2181 Y-36.5797
G01 X42.2020 Y-36.6013
G01 X42.1854 Y-36.6286
G01 X42.1720 Y-36.6575
G01 X42.1629 Y-36.6829
G01 X42.1560 Y-36.7103
G01 X42.1514 Y-36.7406
G01 X42.1500 Y-36.7700
G01 X42.1500 Y-37.8700
G01 X42.1514 Y-37.8994
G01 X42.1553 Y-37.9261
G01 X42.1633 Y-37.9583
G01 X42.1728 Y-37.9848
G01 X42.1866 Y-38.0136
G01 X42.2006 Y-38.0367
G01 X42.2166 Y-38.0584
G01 X42.2362 Y-38.0804
G01 X42.2597 Y-38.1019
G01 X42.2833 Y-38.1194
G01 X42.3086 Y-38.1346
G01 X42.3341 Y-38.1467
G01 X42.3653 Y-38.1577
G01 X42.3915 Y-38.1642
G01 X42.4218 Y-38.1687
G01 X42.4500 Y-38.1700
G01 X42.6499 Y-38.1700
G01 X42.6498 Y-40.8550
G01 X37.8550 Y-45.6499
G01 X32.1450 Y-45.6498
G01 X29.3501 Y-42.8550
G01 X29.3501 Y-11.0000
G01 X29.3485 Y-10.9657
G01 X29.3434 Y-10.9317
G01 X29.3343 Y-10.8960
G01 X29.3235 Y-10.8660
G01 X29.3088 Y-10.8349
G01 X29.2897 Y-10.8035
G01 X29.2707 Y-10.7779
G01 X29.2485 Y-10.7533
G01 X28.2467 Y-9.7515
G01 X28.2221 Y-9.7293
G01 X28.1945 Y-9.7089
G01 X28.1651 Y-9.6912
G01 X28.1317 Y-9.6756
G01 X28.1016 Y-9.6649
G01 X28.0683 Y-9.6566
G01 X28.0343 Y-9.6515
G01 X28.0000 Y-9.6499
G01 X25.7736 Y-9.6498
G01 X25.7496 Y-9.5993
G01 X25.7061 Y-9.5268
G01 X25.6571 Y-9.4608
G01 X25.6010 Y-9.3990
G01 X25.5392 Y-9.3429
G01 X25.4732 Y-9.2939
G01 X25.4007 Y-9.2504
G01 X25.3501 Y-9.2264
G01 X25.3501 Y-8.0000
G01 X25.3486 Y-7.9681
G01 X25.3429 Y-7.9293
G01 X25.3351 Y-7.8984
G01 X25.3235 Y-7.8660
G01 X25.3076 Y-7.8328
G01 X25.2911 Y-7.8055
G01 X25.2722 Y-7.7798
G01 X25.2476 Y-7.7524
G01 X22.2467 Y-4.7515
G01 X22.2221 Y-4.7293
G01 X22.1965 Y-4.7103
G01 X22.1651 Y-4.6912
G01 X22.1340 Y-4.6765
G01 X22.1040 Y-4.6657
G01 X22.0671 Y-4.6564
G01 X22.0343 Y-4.6515
G01 X22.0000 Y-4.6499
G01 X8.0000 Y-4.6499
G01 X7.9632 Y-4.6518
G01 X7.9317 Y-4.6566
G01 X7.8995 Y-4.6646
G01 X7.8660 Y-4.6765
G01 X7.8328 Y-4.6924
G01 X7.8055 Y-4.7089
G01 X7.7798 Y-4.7278
G01 X7.7524 Y-4.7524
G01 X2.1324 Y-10.3724
G01 X2.1093 Y-10.3979
G01 X2.0875 Y-10.4275
G01 X2.0712 Y-10.4549
G01 X2.0575 Y-10.4838
G01 X2.0449 Y-10.5184
G01 X2.0362 Y-10.5541
G01 X2.0315 Y-10.5857
G01 X2.0299 Y-10.6200
G01 X2.0298 Y-17.2264
G01 X1.9793 Y-17.2504
G01 X1.9088 Y-17.2926
G01 X1.8398 Y-17.3437
G01 X1.7790 Y-17.3990
G01 X1.7245 Y-17.4589
G01 X1.6726 Y-17.5288
G01 X1.6304 Y-17.5993
G01 X1.5957 Y-17.6725
G01 X1.5666 Y-17.7533
G01 X1.5459 Y-17.8366
G01 X1.5341 Y-17.9167
G01 X1.5300 Y-18.0000
G01 X1.5341 Y-18.0833
G01 X1.5459 Y-18.1634
G01 X1.5666 Y-18.2467
G01 X1.5957 Y-18.3275
G01 X1.6304 Y-18.4007
G01 X1.6726 Y-18.4712
G01 X1.7245 Y-18.5411
G01 X1.7790 Y-18.6010
G01 X1.8398 Y-18.6563
G01 X1.9088 Y-18.7074
G01 X1.9793 Y-18.7496
G01 X2.0299 Y-18.7736
G01 X2.0298 Y-19.7664
G01 X1.9793 Y-19.7904
G01 X1.9088 Y-19.8326
G01 X1.8398 Y-19.8837
G01 X1.7790 Y-19.9390
G01 X1.7245 Y-19.9989
G01 X1.6726 Y-20.0688
G01 X1.6304 Y-20.1393
G01 X1.5957 Y-20.2125
G01 X1.5666 Y-20.2933
G01 X1.5459 Y-20.3766
G01 X1.5341 Y-20.4567
G01 X1.5300 Y-20.5400
G01 X1.5341 Y-20.6233
G01 X1.5459 Y-20.7034
G01 X1.5666 Y-20.7867
G01 X1.5957 Y-20.8675
G01 X1.6304 Y-20.9407
G01 X1.6726 Y-21.0112
G01 X1.7245 Y-21.0811
G01 X1.7790 Y-21.1410
G01 X1.8398 Y-21.1963
G01 X1.9088 Y-21.2474
G01 X1.9793 Y-21.2896
G01 X2.0299 Y-21.3136
G01 X2.0298 Y-22.3064
G01 X1.9793 Y-22.3304
G01 X1.9088 Y-22.3726
G01 X1.8398 Y-22.4237
G01 X1.7790 Y-22.4790
G01 X1.7245 Y-22.5389
G01 X1.6726 Y-22.6088
G01 X1.6304 Y-22.6793
G01 X1.5957 Y-22.7525
G01 X1.5666 Y-22.8333
G01 X1.5459 Y-22.9166
G01 X1.5341 Y-22.9967
G01 X1.5300 Y-23.0800
G01 X1.5341 Y-23.1633
G01 X1.5459 Y-23.2434
G01 X1.5666 Y-23.3267
G01 X1.5957 Y-23.4075
G01 X1.6304 Y-23.4807
G01 X1.6726 Y-23.5512
G01 X1.7245 Y-23.6211
G01 X1.7790 Y-23.6810
G01 X1.8398 Y-23.7363
G01 X1.9088 Y-23.7874
G01 X1.9793 Y-23.8296
G01 X2.0299 Y-23.8536
G01 X2.0298 Y-24.8464
G01 X1.9793 Y-24.8704
G01 X1.9088 Y-24.9126
G01 X1.8398 Y-24.9637
G01 X1.7790 Y-25.0190
G01 X1.7245 Y-25.0789
G01 X1.6726 Y-25.1488
G01 X1.6304 Y-25.2193
G01 X1.5957 Y-25.2925
G01 X1.5666 Y-25.3733
G01 X1.5459 Y-25.4566
G01 X1.5341 Y-25.5367
G01 X1.5300 Y-25.6200
G01 X1.5341 Y-25.7033
G01 X1.5459 Y-25.7834
G01 X1.5666 Y-25.8667
G01 X1.5957 Y-25.9475
G01 X1.6304 Y-26.0207
G01 X1.6726 Y-26.0912
G01 X1.7245 Y-26.1611
G01 X1.7790 Y-26.2210
G01 X1.8398 Y-26.2763
G01 X1.9088 Y-26.3274
G01 X1.9793 Y-26.3696
G01 X2.0299 Y-26.3936
G01 X2.0298 Y-27.3864
G01 X1.9793 Y-27.4104
G01 X1.9088 Y-27.4526
G01 X1.8398 Y-27.5037
G01 X1.7790 Y-27.5590
G01 X1.7245 Y-27.6189
G01 X1.6726 Y-27.6888
G01 X1.6304 Y-27.7593
G01 X1.5957 Y-27.8325
G01 X1.5666 Y-27.9133
G01 X1.5459 Y-27.9966
G01 X1.5341 Y-28.0767
G01 X1.5300 Y-28.1600
G01 X1.5341 Y-28.2433
G01 X1.5459 Y-28.3234
G01 X1.5666 Y-28.4067
G01 X1.5957 Y-28.4875
G01 X1.6304 Y-28.5607
G01 X1.6726 Y-28.6312
G01 X1.7245 Y-28.7011
G01 X1.7790 Y-28.7610
G01 X1.8398 Y-28.8163
G01 X1.9088 Y-28.8674
G01 X1.9793 Y-28.9096
G01 X2.0299 Y-28.9336
G01 X2.0298 Y-29.9264
G01 X1.9793 Y-29.9504
G01 X1.9088 Y-29.9926
G01 X1.8398 Y-30.0437
G01 X1.7790 Y-30.0990
G01 X1.7245 Y-30.1589
G01 X1.6726 Y-30.2288
G01 X1.6304 Y-30.2993
G01 X1.5957 Y-30.3725
G01 X1.5666 Y-30.4533
G01 X1.5459 Y-30.5366
G01 X1.5341 Y-30.6167
G01 X1.5300 Y-30.7000
G01 X1.5341 Y-30.7833
G01 X1.5459 Y-30.8634
G01 X1.5666 Y-30.9467
G01 X1.5957 Y-31.0275
G01 X1.6304 Y-31.1007
G01 X1.6726 Y-31.1712
G01 X1.7245 Y-31.2411
G01 X1.7790 Y-31.3010
G01 X1.8398 Y-31.3563
G01 X1.9088 Y-31.4074
G01 X1.9793 Y-31.4496
G01 X2.0299 Y-31.4736
G01 X2.0298 Y-32.4664
G01 X1.9793 Y-32.4904
G01 X1.9088 Y-32.5326
G01 X1.8398 Y-32.5837
G01 X1.7790 Y-32.6390
G01 X1.7245 Y-32.6989
G01 X1.6726 Y-32.7688
G01 X1.6304 Y-32.8393
G01 X1.5957 Y-32.9125
G01 X1.5666 Y-32.9933
G01 X1.5459 Y-33.0766
G01 X1.5341 Y-33.1567
G01 X1.5300 Y-33.2400
G01 X1.5341 Y-33.3233
G01 X1.5459 Y-33.4034
G01 X1.5666 Y-33.4867
G01 X1.5957 Y-33.5675
G01 X1.6304 Y-33.6407
G01 X1.6726 Y-33.7112
G01 X1.7245 Y-33.7811
G01 X1.7790 Y-33.8410
G01 X1.8398 Y-33.8963
G01 X1.9088 Y-33.9474
G01 X1.9793 Y-33.9896
G01 X2.0299 Y-34.0136
G01 X2.0298 Y-35.0064
G01 X1.9793 Y-35.0304
G01 X1.9088 Y-35.0726
G01 X1.8398 Y-35.1237
G01 X1.7790 Y-35.1790
G01 X1.7245 Y-35.2389
G01 X1.6726 Y-35.3088
G01 X1.6304 Y-35.3793
G01 X1.5957 Y-35.4525
G01 X1.5666 Y-35.5333
G01 X1.5459 Y-35.6166
G01 X1.5341 Y-35.6967
G01 X1.5300 Y-35.7800
G01 X1.5341 Y-35.8633
G01 X1.5459 Y-35.9434
G01 X1.5666 Y-36.0267
G01 X1.5957 Y-36.1075
G01 X1.6304 Y-36.1807
G01 X1.6726 Y-36.2512
G01 X1.7245 Y-36.3211
G01 X1.7790 Y-36.3810
G01 X1.8398 Y-36.4363
G01 X1.9088 Y-36.4874
G01 X1.9793 Y-36.5296
G01 X2.0299 Y-36.5536
G01 X2.0298 Y-37.5464
G01 X1.9793 Y-37.5704
G01 X1.9088 Y-37.6126
G01 X1.8398 Y-37.6637
G01 X1.7790 Y-37.7190
G01 X1.7245 Y-37.7789
G01 X1.6726 Y-37.8488
G01 X1.6304 Y-37.9193
G01 X1.5957 Y-37.9925
G01 X1.5666 Y-38.0733
G01 X1.5459 Y-38.1566
G01 X1.5341 Y-38.2367
G01 X1.5300 Y-38.3200
G00 Z2.0000
G00 X4.3552 Y-54.7837
G01 F25.00
G01 Z-0.1001
G01 F30.00
G01 X4.3544 Y-54.8008
G01 X4.3545 Y-56.3021
G01 X4.3557 Y-56.3229
G01 X4.3583 Y-56.3399
G01 X4.3624 Y-56.3565
G01 X4.3697 Y-56.3774
G01 X4.3781 Y-56.3951
G01 X4.3896 Y-56.4140
G01 X4.3998 Y-56.4278
G01 X4.4113 Y-56.4405
G01 X4.4276 Y-56.4555
G01 X4.4454 Y-56.4685
G01 X4.4602 Y-56.4773
G01 X4.4757 Y-56.4847
G01 X4.4964 Y-56.4923
G01 X4.5179 Y-56.4975
G01 X4.5349 Y-56.4999
G01 X4.5533 Y-56.5009
G01 X4.9117 Y-56.5009
G01 X4.9300 Y-56.5000
G01 X4.9379 Y-56.4992
G01 X4.9560 Y-56.4959
G01 X4.9749 Y-56.4906
G01 X5.1892 Y-56.4192
G01 X5.2036 Y-56.4138
G01 X5.2203 Y-56.4059
G01 X5.2361 Y-56.3964
G01 X5.2426 Y-56.3919
G01 X5.2570 Y-56.3805
G01 X5.2674 Y-56.3709
G01 X5.4141 Y-56.2241
G01 X5.4227 Y-56.2144
G01 X5.4276 Y-56.2082
G01 X5.4381 Y-56.1931
G01 X5.4452 Y-56.1809
G01 X5.5192 Y-56.0332
G01 X5.5266 Y-56.0163
G01 X5.5290 Y-56.0098
G01 X5.5343 Y-55.9922
G01 X5.6058 Y-55.7065
G01 X5.6096 Y-55.6872
G01 X5.6109 Y-55.6764
G01 X5.6117 Y-55.6580
G01 X5.6117 Y-55.4437
G01 X5.6108 Y-55.4241
G01 X5.6096 Y-55.4144
G01 X5.6076 Y-55.4035
G01 X5.5343 Y-55.1094
G01 X5.5290 Y-55.0918
G01 X5.5266 Y-55.0853
G01 X5.5192 Y-55.0685
G01 X5.4452 Y-54.9208
G01 X5.4388 Y-54.9096
G01 X5.4345 Y-54.9029
G01 X5.4235 Y-54.8882
G01 X5.4141 Y-54.8775
G01 X5.2665 Y-54.7299
G01 X5.2529 Y-54.7176
G01 X5.2426 Y-54.7097
G01 X5.2361 Y-54.7052
G01 X5.2213 Y-54.6964
G01 X5.2086 Y-54.6901
G01 X5.2014 Y-54.6870
G01 X5.1892 Y-54.6824
G01 X4.9709 Y-54.6097
G01 X4.9560 Y-54.6057
G01 X4.9367 Y-54.6023
G01 X4.9300 Y-54.6016
G01 X4.9117 Y-54.6008
G01 X4.5533 Y-54.6008
G01 X4.5349 Y-54.6017
G01 X4.5179 Y-54.6042
G01 X4.4964 Y-54.6094
G01 X4.4757 Y-54.6170
G01 X4.4602 Y-54.6244
G01 X4.4434 Y-54.6345
G01 X4.4257 Y-54.6478
G01 X4.4130 Y-54.6594
G01 X4.3998 Y-54.6739
G01 X4.3868 Y-54.6917
G01 X4.3781 Y-54.7065
G01 X4.3697 Y-54.7243
G01 X4.3631 Y-54.7427
G01 X4.3588 Y-54.7594
G01 X4.3552 Y-54.7837
G00 Z2.0000
G00 X5.2116 Y-55.4683
G01 F25.00
G01 Z-0.1001
G01 F30.00
G01 X5.1515 Y-55.2278
G01 X5.1044 Y-55.1336
G01 X5.0179 Y-55.0471
G01 X4.8792 Y-55.0009
G01 X4.7546 Y-55.0009
G01 X4.7546 Y-56.1008
G01 X4.8792 Y-56.1008
G01 X5.0179 Y-56.0545
G01 X5.1044 Y-55.9680
G01 X5.1515 Y-55.8739
G01 X5.2116 Y-55.6333
G01 X5.2116 Y-55.4683
G00 Z2.0000
G00 X5.8555 Y-55.2800
G01 F25.00
G01 Z-0.1001
G01 F30.00
G01 X5.8544 Y-55.3008
G01 X5.8544 Y-56.3008
G01 X5.8554 Y-56.3204
G01 X5.8583 Y-56.3399
G01 X5.8631 Y-56.3589
G01 X5.8697 Y-56.3774
G01 X5.8781 Y-56.3951
G01 X5.8882 Y-56.4120
G01 X5.8998 Y-56.4278
G01 X5.9130 Y-56.4423
G01 X5.9276 Y-56.4555
G01 X5.9434 Y-56.4672
G01 X5.9602 Y-56.4773
G01 X5.9779 Y-56.4857
G01 X5.9964 Y-56.4923
G01 X6.0155 Y-56.4971
G01 X6.0349 Y-56.4999
G01 X6.0545 Y-56.5009
G01 X6.0741 Y-56.4999
G01 X6.0935 Y-56.4971
G01 X6.1126 Y-56.4923
G01 X6.1311 Y-56.4857
G01 X6.1488 Y-56.4773
G01 X6.1636 Y-56.4685
G01 X6.1833 Y-56.4539
G01 X6.1960 Y-56.4423
G01 X6.2092 Y-56.4278
G01 X6.2209 Y-56.4120
G01 X6.2298 Y-56.3973
G01 X6.2402 Y-56.3751
G01 X6.2460 Y-56.3589
G01 X6.2507 Y-56.3399
G01 X6.2536 Y-56.3204
G01 X6.2545 Y-56.3033
G01 X6.2546 Y-55.3008
G01 X6.2536 Y-55.2812
G01 X6.2502 Y-55.2594
G01 X6.2460 Y-55.2427
G01 X6.2402 Y-55.2266
G01 X6.2310 Y-55.2065
G01 X6.2202 Y-55.1887
G01 X6.2076 Y-55.1720
G01 X6.1960 Y-55.1594
G01 X6.1824 Y-55.1470
G01 X6.1657 Y-55.1345
G01 X6.1499 Y-55.1250
G01 X6.1445 Y-55.1223
G01 X6.1499 Y-55.1195
G01 X6.1667 Y-55.1094
G01 X6.1814 Y-55.0983
G01 X6.1951 Y-55.0860
G01 X6.2683 Y-55.0129
G01 X6.2806 Y-54.9992
G01 X6.2909 Y-54.9854
G01 X6.3035 Y-54.9644
G01 X6.3108 Y-54.9488
G01 X6.3174 Y-54.9303
G01 X6.3226 Y-54.9089
G01 X6.3251 Y-54.8919
G01 X6.3260 Y-54.8735
G01 X6.3251 Y-54.8526
G01 X6.3226 Y-54.8356
G01 X6.3166 Y-54.8118
G01 X6.3108 Y-54.7957
G01 X6.3024 Y-54.7779
G01 X6.2923 Y-54.7611
G01 X6.2821 Y-54.7473
G01 X6.2674 Y-54.7308
G01 X6.1960 Y-54.6594
G01 X6.1824 Y-54.6470
G01 X6.1636 Y-54.6332
G01 X6.1488 Y-54.6244
G01 X6.1311 Y-54.6160
G01 X6.1126 Y-54.6094
G01 X6.0935 Y-54.6046
G01 X6.0741 Y-54.6017
G01 X6.0521 Y-54.6008
G01 X6.0349 Y-54.6017
G01 X6.0179 Y-54.6042
G01 X5.9988 Y-54.6087
G01 X5.9779 Y-54.6160
G01 X5.9602 Y-54.6244
G01 X5.9433 Y-54.6345
G01 X5.9257 Y-54.6478
G01 X5.9131 Y-54.6593
G01 X5.8407 Y-54.7317
G01 X5.8284 Y-54.7453
G01 X5.8167 Y-54.7611
G01 X5.8066 Y-54.7779
G01 X5.7982 Y-54.7957
G01 X5.7916 Y-54.8142
G01 X5.7869 Y-54.8332
G01 X5.7840 Y-54.8526
G01 X5.7831 Y-54.8747
G01 X5.7840 Y-54.8919
G01 X5.7864 Y-54.9089
G01 X5.7910 Y-54.9280
G01 X5.7982 Y-54.9488
G01 X5.8061 Y-54.9655
G01 X5.8167 Y-54.9834
G01 X5.8300 Y-55.0010
G01 X5.8416 Y-55.0137
G01 X5.9130 Y-55.0852
G01 X5.9276 Y-55.0983
G01 X5.9423 Y-55.1093
G01 X5.9591 Y-55.1195
G01 X5.9645 Y-55.1223
G01 X5.9591 Y-55.1250
G01 X5.9434 Y-55.1345
G01 X5.9266 Y-55.1470
G01 X5.9130 Y-55.1594
G01 X5.9015 Y-55.1720
G01 X5.8888 Y-55.1887
G01 X5.8781 Y-55.2065
G01 X5.8688 Y-55.2266
G01 X5.8631 Y-55.2427
G01 X5.8588 Y-55.2594
G01 X5.8555 Y-55.2800
G00 Z2.0000
G00 X6.4978 Y-55.5009
G01 F25.00
G01 Z-0.1001
G01 F30.00
G01 X6.4973 Y-55.5151
G01 X6.4973 Y-56.0865
G01 X6.4979 Y-56.1019
G01 X6.5001 Y-56.1202
G01 X6.5041 Y-56.1382
G01 X6.5059 Y-56.1446
G01 X6.5101 Y-56.1569
G01 X6.5130 Y-56.1642
G01 X6.5184 Y-56.1760
G01 X6.5904 Y-56.3200
G01 X6.5995 Y-56.3360
G01 X6.6107 Y-56.3521
G01 X6.6235 Y-56.3670
G01 X6.6377 Y-56.3805
G01 X6.6532 Y-56.3927
G01 X6.6622 Y-56.3987
G01 X6.6708 Y-56.4038
G01 X6.8222 Y-56.4798
G01 X6.8340 Y-56.4852
G01 X6.8413 Y-56.4881
G01 X6.8576 Y-56.4935
G01 X6.8714 Y-56.4968
G01 X6.8792 Y-56.4982
G01 X6.8920 Y-56.4999
G01 X6.9104 Y-56.5009
G01 X7.1986 Y-56.5009
G01 X7.2128 Y-56.5003
G01 X7.2298 Y-56.4982
G01 X7.2490 Y-56.4941
G01 X7.2566 Y-56.4919
G01 X7.2689 Y-56.4877
G01 X7.2857 Y-56.4803
G01 X7.4297 Y-56.4084
G01 X7.4458 Y-56.3994
G01 X7.4648 Y-56.3859
G01 X7.4778 Y-56.3747
G01 X7.4914 Y-56.3605
G01 X7.5035 Y-56.3450
G01 X7.5152 Y-56.3263
G01 X7.5239 Y-56.3087
G01 X7.5300 Y-56.2927
G01 X7.5347 Y-56.2761
G01 X7.5387 Y-56.2544
G01 X7.5402 Y-56.2348
G01 X7.5398 Y-56.2152
G01 X7.5374 Y-56.1957
G01 X7.5332 Y-56.1766
G01 X7.5262 Y-56.1556
G01 X7.5192 Y-56.1399
G01 X7.5108 Y-56.1249
G01 X7.4997 Y-56.1087
G01 X7.4855 Y-56.0918
G01 X7.4713 Y-56.0783
G01 X7.4559 Y-56.0661
G01 X7.4382 Y-56.0550
G01 X7.4218 Y-56.0467
G01 X7.4058 Y-56.0404
G01 X7.3846 Y-56.0343
G01 X7.3652 Y-56.0309
G01 X7.3481 Y-56.0295
G01 X7.3248 Y-56.0299
G01 X7.3065 Y-56.0322
G01 X7.2898 Y-56.0358
G01 X7.2676 Y-56.0430
G01 X7.2507 Y-56.0504
G01 X7.1501 Y-56.1008
G01 X6.9589 Y-56.1008
G01 X6.9179 Y-56.0803
G01 X6.8974 Y-56.0393
G01 X6.8974 Y-55.9649
G01 X7.4509 Y-55.8542
G01 X7.4686 Y-55.8498
G01 X7.4882 Y-55.8428
G01 X7.5038 Y-55.8355
G01 X7.5083 Y-55.8331
G01 X7.5250 Y-55.8228
G01 X7.5387 Y-55.8125
G01 X7.5533 Y-55.7993
G01 X7.5663 Y-55.7849
G01 X7.5773 Y-55.7701
G01 X7.5882 Y-55.7521
G01 X7.5975 Y-55.7321
G01 X7.6032 Y-55.7159
G01 X7.6073 Y-55.6994
G01 X7.6108 Y-55.6776
G01 X7.6117 Y-55.6580
G01 X7.6117 Y-55.5139
G01 X7.6108 Y-55.4955
G01 X7.6079 Y-55.4761
G01 X7.6049 Y-55.4635
G01 X7.6027 Y-55.4559
G01 X7.5970 Y-55.4397
G01 X7.5911 Y-55.4267
G01 X7.5146 Y-55.2742
G01 X7.5089 Y-55.2646
G01 X7.5035 Y-55.2566
G01 X7.4975 Y-55.2486
G01 X7.4855 Y-55.2347
G01 X7.4713 Y-55.2211
G01 X7.4559 Y-55.2090
G01 X7.4468 Y-55.2029
G01 X7.4382 Y-55.1978
G01 X7.2868 Y-55.1219
G01 X7.2739 Y-55.1160
G01 X7.2566 Y-55.1097
G01 X7.2490 Y-55.1075
G01 X7.2323 Y-55.1038
G01 X7.2170 Y-55.1017
G01 X7.1974 Y-55.1008
G01 X6.9117 Y-55.1008
G01 X6.8975 Y-55.1013
G01 X6.8792 Y-55.1034
G01 X6.8714 Y-55.1049
G01 X6.8576 Y-55.1082
G01 X6.8401 Y-55.1140
G01 X6.8233 Y-55.1213
G01 X6.6708 Y-55.1978
G01 X6.6612 Y-55.2036
G01 X6.6461 Y-55.2142
G01 X6.6321 Y-55.2262
G01 X6.6227 Y-55.2356
G01 X6.6169 Y-55.2421
G01 X6.6062 Y-55.2556
G01 X6.5995 Y-55.2657
G01 X6.5944 Y-55.2742
G01 X6.5179 Y-55.4268
G01 X6.5105 Y-55.4436
G01 X6.5044 Y-55.4623
G01 X6.5001 Y-55.4814
G01 X6.4978 Y-55.5009
G00 Z2.0000
G00 X7.1578 Y-55.5047
G01 F25.00
G01 Z-0.1001
G01 F30.00
G01 X7.1501 Y-55.5009
G01 X6.9589 Y-55.5009
G01 X6.9179 Y-55.5214
G01 X6.9005 Y-55.5562
G01 X7.1578 Y-55.5047
G00 Z2.0000
G00 X7.7836 Y-55.5711
G01 F25.00
G01 Z-0.1001
G01 F30.00
G01 X7.7830 Y-55.5865
G01 X7.7830 Y-56.0151
G01 X7.7836 Y-56.0305
G01 X7.7859 Y-56.0488
G01 X7.7898 Y-56.0668
G01 X7.7920 Y-56.0744
G01 X7.7967 Y-56.0878
G01 X7.8036 Y-56.1035
G01 X7.8781 Y-56.2523
G01 X7.8852 Y-56.2646
G01 X7.8957 Y-56.2797
G01 X7.9006 Y-56.2858
G01 X7.9101 Y-56.2964
G01 X7.9845 Y-56.3709
G01 X7.9990 Y-56.3841
G01 X8.0138 Y-56.3951
G01 X8.0204 Y-56.3994
G01 X8.0365 Y-56.4084
G01 X8.1793 Y-56.4798
G01 X8.1973 Y-56.4877
G01 X8.2107 Y-56.4923
G01 X8.2286 Y-56.4968
G01 X8.2363 Y-56.4982
G01 X8.2558 Y-56.5005
G01 X8.2688 Y-56.5009
G01 X8.4808 Y-56.5009
G01 X8.4615 Y-56.5395
G01 X8.4360 Y-56.5650
G01 X8.3644 Y-56.6008
G01 X8.2446 Y-56.6008
G01 X8.1440 Y-56.5504
G01 X8.1272 Y-56.5430
G01 X8.1050 Y-56.5358
G01 X8.0882 Y-56.5322
G01 X8.0711 Y-56.5301
G01 X8.0466 Y-56.5295
G01 X8.0295 Y-56.5309
G01 X8.0101 Y-56.5343
G01 X7.9912 Y-56.5396
G01 X7.9752 Y-56.5458
G01 X7.9554 Y-56.5556
G01 X7.9389 Y-56.5661
G01 X7.9234 Y-56.5783
G01 X7.9092 Y-56.5918
G01 X7.8965 Y-56.6067
G01 X7.8852 Y-56.6228
G01 X7.8756 Y-56.6399
G01 X7.8676 Y-56.6579
G01 X7.8609 Y-56.6789
G01 X7.8573 Y-56.6957
G01 X7.8548 Y-56.7177
G01 X7.8545 Y-56.7348
G01 X7.8558 Y-56.7520
G01 X7.8589 Y-56.7714
G01 X7.8647 Y-56.7927
G01 X7.8718 Y-56.8110
G01 X7.8807 Y-56.8285
G01 X7.8905 Y-56.8440
G01 X7.9034 Y-56.8605
G01 X7.9188 Y-56.8763
G01 X7.9318 Y-56.8875
G01 X7.9459 Y-56.8974
G01 X7.9639 Y-56.9078
G01 X8.1079 Y-56.9798
G01 X8.1208 Y-56.9857
G01 X8.1381 Y-56.9919
G01 X8.1457 Y-56.9941
G01 X8.1637 Y-56.9980
G01 X8.1832 Y-57.0004
G01 X8.1974 Y-57.0009
G01 X8.4129 Y-57.0009
G01 X8.4313 Y-56.9999
G01 X8.4441 Y-56.9982
G01 X8.4519 Y-56.9968
G01 X8.4657 Y-56.9935
G01 X8.4820 Y-56.9881
G01 X8.5000 Y-56.9803
G01 X8.6440 Y-56.9084
G01 X8.6600 Y-56.8994
G01 X8.6657 Y-56.8958
G01 X8.6805 Y-56.8848
G01 X8.6921 Y-56.8747
G01 X8.7674 Y-56.7994
G01 X8.7814 Y-56.7839
G01 X8.7916 Y-56.7701
G01 X8.7953 Y-56.7646
G01 X8.8049 Y-56.7474
G01 X8.8763 Y-56.6046
G01 X8.8817 Y-56.5928
G01 X8.8847 Y-56.5855
G01 X8.8906 Y-56.5668
G01 X8.8944 Y-56.5500
G01 X8.8963 Y-56.5359
G01 X8.8970 Y-56.5281
G01 X8.8974 Y-56.5151
G01 X8.8974 Y-55.2996
G01 X8.8965 Y-55.2812
G01 X8.8940 Y-55.2642
G01 X8.8888 Y-55.2427
G01 X8.8812 Y-55.2220
G01 X8.8738 Y-55.2065
G01 X8.8637 Y-55.1897
G01 X8.8520 Y-55.1739
G01 X8.8388 Y-55.1594
G01 X8.8243 Y-55.1462
G01 X8.8065 Y-55.1332
G01 X8.7917 Y-55.1244
G01 X8.7762 Y-55.1170
G01 X8.7578 Y-55.1101
G01 X8.7364 Y-55.1046
G01 X8.7182 Y-55.1019
G01 X8.6974 Y-55.1008
G01 X8.6765 Y-55.1019
G01 X8.6559 Y-55.1051
G01 X8.6393 Y-55.1094
G01 X8.6261 Y-55.1140
G01 X8.6126 Y-55.1094
G01 X8.5947 Y-55.1049
G01 X8.5753 Y-55.1019
G01 X8.5675 Y-55.1012
G01 X8.5545 Y-55.1008
G01 X8.2676 Y-55.1008
G01 X8.2492 Y-55.1017
G01 X8.2339 Y-55.1038
G01 X8.2160 Y-55.1079
G01 X8.1984 Y-55.1135
G01 X8.1911 Y-55.1165
G01 X8.1793 Y-55.1219
G01 X8.0365 Y-55.1933
G01 X8.0306 Y-55.1964
G01 X8.0148 Y-55.2059
G01 X8.0000 Y-55.2168
G01 X7.9884 Y-55.2270
G01 X7.9084 Y-55.3070
G01 X7.8991 Y-55.3177
G01 X7.8888 Y-55.3315
G01 X7.8845 Y-55.3381
G01 X7.8781 Y-55.3494
G01 X7.8036 Y-55.4982
G01 X7.7962 Y-55.5150
G01 X7.7901 Y-55.5337
G01 X7.7859 Y-55.5529
G01 X7.7836 Y-55.5711
G00 Z2.0000
G00 X8.2189 Y-56.0395
G01 F25.00
G01 Z-0.1001
G01 F30.00
G01 X8.2445 Y-56.0650
G01 X8.3160 Y-56.1008
G01 X8.4973 Y-56.1008
G01 X8.4973 Y-55.5009
G01 X8.3160 Y-55.5009
G01 X8.2445 Y-55.5367
G01 X8.2189 Y-55.5622
G01 X8.1832 Y-55.6338
G01 X8.1832 Y-55.9679
G01 X8.2189 Y-56.0395
G00 Z2.0000
G00 X9.1408 Y-55.5711
G01 F25.00
G01 Z-0.1001
G01 F30.00
G01 X9.1402 Y-55.5865
G01 X9.1402 Y-56.0163
G01 X9.1408 Y-56.0305
G01 X9.1428 Y-56.0476
G01 X9.1442 Y-56.0553
G01 X9.1473 Y-56.0680
G01 X9.1534 Y-56.0866
G01 X9.1613 Y-56.1046
G01 X9.2327 Y-56.2474
G01 X9.2417 Y-56.2635
G01 X9.2460 Y-56.2701
G01 X9.2570 Y-56.2849
G01 X9.2664 Y-56.2955
G01 X9.3416 Y-56.3709
G01 X9.3571 Y-56.3848
G01 X9.3709 Y-56.3951
G01 X9.3765 Y-56.3987
G01 X9.3936 Y-56.4084
G01 X9.5376 Y-56.4803
G01 X9.5533 Y-56.4872
G01 X9.5667 Y-56.4919
G01 X9.5743 Y-56.4941
G01 X9.5869 Y-56.4971
G01 X9.6063 Y-56.4999
G01 X9.6259 Y-56.5009
G01 X9.8402 Y-56.5009
G01 X9.8556 Y-56.5003
G01 X9.8739 Y-56.4980
G01 X9.8919 Y-56.4941
G01 X9.8995 Y-56.4919
G01 X9.9129 Y-56.4872
G01 X9.9286 Y-56.4803
G01 X10.0726 Y-56.4084
G01 X10.0886 Y-56.3994
G01 X10.0942 Y-56.3958
G01 X10.1091 Y-56.3848
G01 X10.1207 Y-56.3747
G01 X10.1960 Y-56.2994
G01 X10.2099 Y-56.2839
G01 X10.2202 Y-56.2701
G01 X10.2238 Y-56.2646
G01 X10.2335 Y-56.2474
G01 X10.3054 Y-56.1035
G01 X10.3123 Y-56.0878
G01 X10.3170 Y-56.0744
G01 X10.3192 Y-56.0668
G01 X10.3234 Y-56.0476
G01 X10.3255 Y-56.0293
G01 X10.3260 Y-56.0151
G01 X10.3260 Y-55.5865
G01 X10.3256 Y-55.5736
G01 X10.3249 Y-55.5657
G01 X10.3229 Y-55.5517
G01 X10.3192 Y-55.5349
G01 X10.3132 Y-55.5162
G01 X10.3103 Y-55.5088
G01 X10.3049 Y-55.4971
G01 X10.2335 Y-55.3542
G01 X10.2232 Y-55.3361
G01 X10.2126 Y-55.3210
G01 X10.1998 Y-55.3061
G01 X10.1246 Y-55.2308
G01 X10.1090 Y-55.2168
G01 X10.0952 Y-55.2066
G01 X10.0897 Y-55.2029
G01 X10.0726 Y-55.1933
G01 X9.9286 Y-55.1213
G01 X9.9157 Y-55.1155
G01 X9.8995 Y-55.1097
G01 X9.8919 Y-55.1075
G01 X9.8739 Y-55.1036
G01 X9.8586 Y-55.1016
G01 X9.8402 Y-55.1008
G01 X9.6247 Y-55.1008
G01 X9.6063 Y-55.1017
G01 X9.5869 Y-55.1046
G01 X9.5719 Y-55.1082
G01 X9.5544 Y-55.1140
G01 X9.5365 Y-55.1219
G01 X9.3936 Y-55.1933
G01 X9.3877 Y-55.1964
G01 X9.3719 Y-55.2059
G01 X9.3571 Y-55.2168
G01 X9.3455 Y-55.2270
G01 X9.2655 Y-55.3070
G01 X9.2562 Y-55.3177
G01 X9.2460 Y-55.3315
G01 X9.2417 Y-55.3381
G01 X9.2352 Y-55.3494
G01 X9.1607 Y-55.4982
G01 X9.1534 Y-55.5150
G01 X9.1473 Y-55.5337
G01 X9.1430 Y-55.5529
G01 X9.1408 Y-55.5711
G00 Z2.0000
G00 X9.7930 Y-55.5009
G01 F25.00
G01 Z-0.1001
G01 F30.00
G01 X9.6732 Y-55.5009
G01 X9.6016 Y-55.5367
G01 X9.5761 Y-55.5622
G01 X9.5403 Y-55.6338
G01 X9.5403 Y-55.9679
G01 X9.5761 Y-56.0395
G01 X9.6016 Y-56.0650
G01 X9.6732 Y-56.1008
G01 X9.7930 Y-56.1008
G01 X9.8646 Y-56.0650
G01 X9.8901 Y-56.0395
G01 X9.9259 Y-55.9679
G01 X9.9259 Y-55.6338
G01 X9.8901 Y-55.5622
G01 X9.8646 Y-55.5367
G01 X9.7930 Y-55.5009
G00 Z2.0000
G00 X11.7127 Y-54.7800
G01 F25.00
G01 Z-0.1001
G01 F30.00
G01 X11.7116 Y-54.8008
G01 X11.7116 Y-56.3008
G01 X11.7127 Y-56.3217
G01 X11.7154 Y-56.3399
G01 X11.7202 Y-56.3589
G01 X11.7268 Y-56.3774
G01 X11.7352 Y-56.3951
G01 X11.7453 Y-56.4120
G01 X11.7570 Y-56.4278
G01 X11.7702 Y-56.4423
G01 X11.7847 Y-56.4555
G01 X11.8005 Y-56.4672
G01 X11.8173 Y-56.4773
G01 X11.8351 Y-56.4857
G01 X11.8536 Y-56.4923
G01 X11.8726 Y-56.4971
G01 X11.8920 Y-56.4999
G01 X11.9117 Y-56.5009
G01 X11.9325 Y-56.4998
G01 X11.9507 Y-56.4971
G01 X11.9674 Y-56.4929
G01 X11.9882 Y-56.4857
G01 X12.0060 Y-56.4773
G01 X12.0207 Y-56.4685
G01 X12.0386 Y-56.4555
G01 X12.0531 Y-56.4423
G01 X12.0647 Y-56.4296
G01 X12.0780 Y-56.4120
G01 X12.0881 Y-56.3951
G01 X12.0955 Y-56.3796
G01 X12.1038 Y-56.3565
G01 X12.1079 Y-56.3399
G01 X12.1105 Y-56.3229
G01 X12.1117 Y-56.3021
G01 X12.1117 Y-55.7866
G01 X12.4831 Y-55.7866
G01 X12.4985 Y-55.7860
G01 X12.5168 Y-55.7838
G01 X12.5347 Y-55.7798
G01 X12.5423 Y-55.7776
G01 X12.5557 Y-55.7730
G01 X12.5715 Y-55.7660
G01 X12.7203 Y-55.6916
G01 X12.7371 Y-55.6815
G01 X12.7476 Y-55.6739
G01 X12.7538 Y-55.6690
G01 X12.7674 Y-55.6566
G01 X12.8426 Y-55.5813
G01 X12.8528 Y-55.5697
G01 X12.8637 Y-55.5548
G01 X12.8673 Y-55.5492
G01 X12.8763 Y-55.5332
G01 X12.9477 Y-55.3903
G01 X12.9532 Y-55.3785
G01 X12.9561 Y-55.3712
G01 X12.9614 Y-55.3549
G01 X12.9648 Y-55.3411
G01 X12.9662 Y-55.3333
G01 X12.9684 Y-55.3138
G01 X12.9689 Y-55.3008
G01 X12.9689 Y-55.0865
G01 X12.9684 Y-55.0736
G01 X12.9678 Y-55.0657
G01 X12.9650 Y-55.0475
G01 X12.9614 Y-55.0325
G01 X12.9557 Y-55.0150
G01 X12.9483 Y-54.9982
G01 X12.8738 Y-54.8494
G01 X12.8673 Y-54.8381
G01 X12.8630 Y-54.8315
G01 X12.8520 Y-54.8168
G01 X12.8426 Y-54.8061
G01 X12.7635 Y-54.7270
G01 X12.7486 Y-54.7142
G01 X12.7325 Y-54.7029
G01 X12.7154 Y-54.6933
G01 X12.5715 Y-54.6213
G01 X12.5534 Y-54.6135
G01 X12.5371 Y-54.6082
G01 X12.5233 Y-54.6049
G01 X12.5155 Y-54.6034
G01 X12.5027 Y-54.6017
G01 X12.4831 Y-54.6008
G01 X11.9117 Y-54.6008
G01 X11.8920 Y-54.6017
G01 X11.8714 Y-54.6049
G01 X11.8536 Y-54.6094
G01 X11.8374 Y-54.6151
G01 X11.8152 Y-54.6256
G01 X11.8005 Y-54.6345
G01 X11.7847 Y-54.6462
G01 X11.7702 Y-54.6594
G01 X11.7586 Y-54.6720
G01 X11.7440 Y-54.6917
G01 X11.7352 Y-54.7065
G01 X11.7268 Y-54.7243
G01 X11.7195 Y-54.7451
G01 X11.7154 Y-54.7618
G01 X11.7127 Y-54.7800
G00 Z2.0000
G00 X12.5329 Y-55.0622
G01 F25.00
G01 Z-0.1001
G01 F30.00
G01 X12.5074 Y-55.0367
G01 X12.4359 Y-55.0009
G01 X12.1117 Y-55.0009
G01 X12.1117 Y-55.3865
G01 X12.4359 Y-55.3865
G01 X12.5074 Y-55.3507
G01 X12.5329 Y-55.3252
G01 X12.5687 Y-55.2536
G01 X12.5687 Y-55.1338
G01 X12.5329 Y-55.0622
G00 Z2.0000
G00 X13.1408 Y-55.5711
G01 F25.00
G01 Z-0.1001
G01 F30.00
G01 X13.1402 Y-55.5865
G01 X13.1402 Y-56.0163
G01 X13.1408 Y-56.0305
G01 X13.1428 Y-56.0476
G01 X13.1442 Y-56.0553
G01 X13.1473 Y-56.0680
G01 X13.1534 Y-56.0866
G01 X13.1613 Y-56.1046
G01 X13.2327 Y-56.2474
G01 X13.2417 Y-56.2635
G01 X13.2460 Y-56.2701
G01 X13.2570 Y-56.2849
G01 X13.2664 Y-56.2955
G01 X13.3416 Y-56.3709
G01 X13.3571 Y-56.3848
G01 X13.3709 Y-56.3951
G01 X13.3765 Y-56.3987
G01 X13.3936 Y-56.4084
G01 X13.5376 Y-56.4803
G01 X13.5533 Y-56.4872
G01 X13.5667 Y-56.4919
G01 X13.5743 Y-56.4941
G01 X13.5869 Y-56.4971
G01 X13.6063 Y-56.4999
G01 X13.6259 Y-56.5009
G01 X13.8402 Y-56.5009
G01 X13.8556 Y-56.5003
G01 X13.8739 Y-56.4980
G01 X13.8919 Y-56.4941
G01 X13.8995 Y-56.4919
G01 X13.9129 Y-56.4872
G01 X13.9286 Y-56.4803
G01 X14.0726 Y-56.4084
G01 X14.0886 Y-56.3994
G01 X14.0942 Y-56.3958
G01 X14.1091 Y-56.3848
G01 X14.1207 Y-56.3747
G01 X14.1960 Y-56.2994
G01 X14.2099 Y-56.2839
G01 X14.2202 Y-56.2701
G01 X14.2238 Y-56.2646
G01 X14.2335 Y-56.2474
G01 X14.3054 Y-56.1035
G01 X14.3123 Y-56.0878
G01 X14.3170 Y-56.0744
G01 X14.3192 Y-56.0668
G01 X14.3234 Y-56.0476
G01 X14.3255 Y-56.0293
G01 X14.3260 Y-56.0151
G01 X14.3260 Y-55.5865
G01 X14.3256 Y-55.5736
G01 X14.3249 Y-55.5657
G01 X14.3229 Y-55.5517
G01 X14.3192 Y-55.5349
G01 X14.3132 Y-55.5162
G01 X14.3103 Y-55.5088
G01 X14.3049 Y-55.4971
G01 X14.2335 Y-55.3542
G01 X14.2232 Y-55.3361
G01 X14.2126 Y-55.3210
G01 X14.1998 Y-55.3061
G01 X14.1246 Y-55.2308
G01 X14.1090 Y-55.2168
G01 X14.0952 Y-55.2066
G01 X14.0897 Y-55.2029
G01 X14.0726 Y-55.1933
G01 X13.9286 Y-55.1213
G01 X13.9157 Y-55.1155
G01 X13.8995 Y-55.1097
G01 X13.8919 Y-55.1075
G01 X13.8739 Y-55.1036
G01 X13.8586 Y-55.1016
G01 X13.8402 Y-55.1008
G01 X13.6247 Y-55.1008
G01 X13.6063 Y-55.1017
G01 X13.5869 Y-55.1046
G01 X13.5719 Y-55.1082
G01 X13.5544 Y-55.1140
G01 X13.5365 Y-55.1219
G01 X13.3936 Y-55.1933
G01 X13.3877 Y-55.1964
G01 X13.3719 Y-55.2059
G01 X13.3571 Y-55.2168
G01 X13.3455 Y-55.2270
G01 X13.2655 Y-55.3070
G01 X13.2562 Y-55.3177
G01 X13.2460 Y-55.3315
G01 X13.2417 Y-55.3381
G01 X13.2352 Y-55.3494
G01 X13.1607 Y-55.4982
G01 X13.1534 Y-55.5150
G01 X13.1473 Y-55.5337
G01 X13.1430 Y-55.5529
G01 X13.1408 Y-55.5711
G00 Z2.0000
G00 X13.7930 Y-55.5009
G01 F25.00
G01 Z-0.1001
G01 F30.00
G01 X13.6732 Y-55.5009
G01 X13.6016 Y-55.5367
G01 X13.5761 Y-55.5622
G01 X13.5403 Y-55.6338
G01 X13.5403 Y-55.9679
G01 X13.5761 Y-56.0395
G01 X13.6016 Y-56.0650
G01 X13.6732 Y-56.1008
G01 X13.7930 Y-56.1008
G01 X13.8646 Y-56.0650
G01 X13.8901 Y-56.0395
G01 X13.9259 Y-55.9679
G01 X13.9259 Y-55.6338
G01 X13.8901 Y-55.5622
G01 X13.8646 Y-55.5367
G01 X13.7930 Y-55.5009
G00 Z2.0000
G00 X14.5698 Y-55.2800
G01 F25.00
G01 Z-0.1001
G01 F30.00
G01 X14.5687 Y-55.3008
G01 X14.5687 Y-56.3008
G01 X14.5697 Y-56.3204
G01 X14.5726 Y-56.3399
G01 X14.5773 Y-56.3589
G01 X14.5840 Y-56.3774
G01 X14.5923 Y-56.3951
G01 X14.6024 Y-56.4120
G01 X14.6141 Y-56.4278
G01 X14.6273 Y-56.4423
G01 X14.6419 Y-56.4555
G01 X14.6576 Y-56.4672
G01 X14.6745 Y-56.4773
G01 X14.6922 Y-56.4857
G01 X14.7107 Y-56.4923
G01 X14.7298 Y-56.4971
G01 X14.7492 Y-56.4999
G01 X14.7688 Y-56.5009
G01 X14.7884 Y-56.4999
G01 X14.8078 Y-56.4971
G01 X14.8269 Y-56.4923
G01 X14.8431 Y-56.4866
G01 X14.8631 Y-56.4773
G01 X14.8800 Y-56.4672
G01 X14.8938 Y-56.4570
G01 X14.9103 Y-56.4423
G01 X14.9250 Y-56.4258
G01 X14.9352 Y-56.4120
G01 X14.9452 Y-56.3951
G01 X14.9545 Y-56.3751
G01 X14.9603 Y-56.3589
G01 X14.9650 Y-56.3399
G01 X14.9679 Y-56.3204
G01 X14.9689 Y-56.3008
G01 X14.9689 Y-55.6338
G01 X15.0047 Y-55.5622
G01 X15.0302 Y-55.5367
G01 X15.1017 Y-55.5009
G01 X15.1974 Y-55.5009
G01 X15.2145 Y-55.5001
G01 X15.2364 Y-55.4971
G01 X15.2543 Y-55.4926
G01 X15.2739 Y-55.4857
G01 X15.2917 Y-55.4773
G01 X15.3085 Y-55.4672
G01 X15.3252 Y-55.4547
G01 X15.3388 Y-55.4423
G01 X15.3504 Y-55.4296
G01 X15.3637 Y-55.4120
G01 X15.3749 Y-55.3930
G01 X15.3822 Y-55.3774
G01 X15.3881 Y-55.3612
G01 X15.3936 Y-55.3399
G01 X15.3967 Y-55.3180
G01 X15.3974 Y-55.3008
G01 X15.3967 Y-55.2837
G01 X15.3936 Y-55.2618
G01 X15.3888 Y-55.2427
G01 X15.3831 Y-55.2266
G01 X15.3738 Y-55.2065
G01 X15.3623 Y-55.1877
G01 X15.3520 Y-55.1739
G01 X15.3405 Y-55.1611
G01 X15.3243 Y-55.1462
G01 X15.3065 Y-55.1332
G01 X15.2917 Y-55.1244
G01 X15.2762 Y-55.1170
G01 X15.2531 Y-55.1087
G01 X15.2364 Y-55.1046
G01 X15.2194 Y-55.1020
G01 X15.1986 Y-55.1008
G01 X15.0545 Y-55.1008
G01 X15.0416 Y-55.1012
G01 X15.0337 Y-55.1019
G01 X15.0196 Y-55.1038
G01 X15.0029 Y-55.1075
G01 X14.9953 Y-55.1097
G01 X14.9830 Y-55.1140
G01 X14.9650 Y-55.1219
G01 X14.9031 Y-55.1528
G01 X14.8948 Y-55.1454
G01 X14.8789 Y-55.1338
G01 X14.8631 Y-55.1244
G01 X14.8442 Y-55.1155
G01 X14.8269 Y-55.1094
G01 X14.8078 Y-55.1046
G01 X14.7884 Y-55.1017
G01 X14.7676 Y-55.1008
G01 X14.7492 Y-55.1017
G01 X14.7298 Y-55.1046
G01 X14.7107 Y-55.1094
G01 X14.6945 Y-55.1151
G01 X14.6745 Y-55.1244
G01 X14.6597 Y-55.1332
G01 X14.6400 Y-55.1478
G01 X14.6273 Y-55.1594
G01 X14.6141 Y-55.1739
G01 X14.6024 Y-55.1897
G01 X14.5923 Y-55.2065
G01 X14.5840 Y-55.2243
G01 X14.5773 Y-55.2427
G01 X14.5726 Y-55.2618
G01 X14.5698 Y-55.2800
G00 Z2.0000
G00 X15.4986 Y-55.2788
G01 F25.00
G01 Z-0.1001
G01 F30.00
G01 X15.4973 Y-55.3008
G01 X15.4973 Y-56.3008
G01 X15.4983 Y-56.3204
G01 X15.5011 Y-56.3399
G01 X15.5059 Y-56.3589
G01 X15.5125 Y-56.3774
G01 X15.5209 Y-56.3951
G01 X15.5310 Y-56.4120
G01 X15.5427 Y-56.4278
G01 X15.5559 Y-56.4423
G01 X15.5704 Y-56.4555
G01 X15.5862 Y-56.4672
G01 X15.6031 Y-56.4773
G01 X15.6208 Y-56.4857
G01 X15.6393 Y-56.4923
G01 X15.6583 Y-56.4971
G01 X15.6778 Y-56.4999
G01 X15.6974 Y-56.5009
G01 X15.7170 Y-56.4999
G01 X15.7364 Y-56.4971
G01 X15.7554 Y-56.4923
G01 X15.7716 Y-56.4866
G01 X15.7917 Y-56.4773
G01 X15.8085 Y-56.4672
G01 X15.8224 Y-56.4570
G01 X15.8388 Y-56.4423
G01 X15.8535 Y-56.4258
G01 X15.8637 Y-56.4120
G01 X15.8738 Y-56.3951
G01 X15.8831 Y-56.3751
G01 X15.8888 Y-56.3589
G01 X15.8936 Y-56.3399
G01 X15.8965 Y-56.3204
G01 X15.8974 Y-56.3008
G01 X15.8974 Y-55.6338
G01 X15.9332 Y-55.5622
G01 X15.9587 Y-55.5367
G01 X16.0303 Y-55.5009
G01 X16.1259 Y-55.5009
G01 X16.1431 Y-55.5001
G01 X16.1650 Y-55.4971
G01 X16.1828 Y-55.4926
G01 X16.2025 Y-55.4857
G01 X16.2203 Y-55.4773
G01 X16.2371 Y-55.4672
G01 X16.2538 Y-55.4547
G01 X16.2674 Y-55.4423
G01 X16.2790 Y-55.4296
G01 X16.2923 Y-55.4120
G01 X16.3035 Y-55.3930
G01 X16.3108 Y-55.3774
G01 X16.3166 Y-55.3612
G01 X16.3222 Y-55.3399
G01 X16.3252 Y-55.3180
G01 X16.3260 Y-55.3008
G01 X16.3252 Y-55.2837
G01 X16.3222 Y-55.2618
G01 X16.3174 Y-55.2427
G01 X16.3117 Y-55.2266
G01 X16.3024 Y-55.2065
G01 X16.2909 Y-55.1877
G01 X16.2806 Y-55.1739
G01 X16.2691 Y-55.1611
G01 X16.2529 Y-55.1462
G01 X16.2350 Y-55.1332
G01 X16.2203 Y-55.1244
G01 X16.2047 Y-55.1170
G01 X16.1817 Y-55.1087
G01 X16.1650 Y-55.1046
G01 X16.1480 Y-55.1020
G01 X16.1272 Y-55.1008
G01 X15.9831 Y-55.1008
G01 X15.9701 Y-55.1012
G01 X15.9623 Y-55.1019
G01 X15.9482 Y-55.1038
G01 X15.9314 Y-55.1075
G01 X15.9238 Y-55.1097
G01 X15.9116 Y-55.1140
G01 X15.8936 Y-55.1219
G01 X15.8317 Y-55.1528
G01 X15.8233 Y-55.1454
G01 X15.8075 Y-55.1338
G01 X15.7917 Y-55.1244
G01 X15.7728 Y-55.1155
G01 X15.7554 Y-55.1094
G01 X15.7364 Y-55.1046
G01 X15.7170 Y-55.1017
G01 X15.6961 Y-55.1008
G01 X15.6778 Y-55.1017
G01 X15.6583 Y-55.1046
G01 X15.6393 Y-55.1094
G01 X15.6231 Y-55.1151
G01 X15.6031 Y-55.1244
G01 X15.5883 Y-55.1332
G01 X15.5686 Y-55.1478
G01 X15.5559 Y-55.1594
G01 X15.5427 Y-55.1739
G01 X15.5310 Y-55.1897
G01 X15.5209 Y-55.2065
G01 X15.5125 Y-55.2243
G01 X15.5059 Y-55.2427
G01 X15.5011 Y-55.2618
G01 X15.4986 Y-55.2788
G00 Z2.0000
G00 X16.3550 Y-55.9283
G01 F25.00
G01 Z-0.1001
G01 F30.00
G01 X16.3544 Y-55.9437
G01 X16.3544 Y-56.0865
G01 X16.3549 Y-56.0995
G01 X16.3571 Y-56.1190
G01 X16.3585 Y-56.1268
G01 X16.3631 Y-56.1446
G01 X16.3676 Y-56.1580
G01 X16.3756 Y-56.1760
G01 X16.4470 Y-56.3189
G01 X16.4527 Y-56.3295
G01 X16.4620 Y-56.3440
G01 X16.4679 Y-56.3521
G01 X16.4756 Y-56.3614
G01 X16.4875 Y-56.3738
G01 X16.4948 Y-56.3805
G01 X16.5033 Y-56.3875
G01 X16.5113 Y-56.3934
G01 X16.5258 Y-56.4026
G01 X16.5354 Y-56.4078
G01 X16.6793 Y-56.4798
G01 X16.6922 Y-56.4857
G01 X16.7095 Y-56.4919
G01 X16.7171 Y-56.4941
G01 X16.7351 Y-56.4980
G01 X16.7546 Y-56.5004
G01 X16.7688 Y-56.5009
G01 X17.1272 Y-56.5009
G01 X17.1455 Y-56.4999
G01 X17.1650 Y-56.4971
G01 X17.1828 Y-56.4926
G01 X17.1976 Y-56.4876
G01 X17.2107 Y-56.4923
G01 X17.2274 Y-56.4965
G01 X17.2467 Y-56.4996
G01 X17.2688 Y-56.5009
G01 X17.2860 Y-56.5001
G01 X17.3078 Y-56.4971
G01 X17.3292 Y-56.4915
G01 X17.3454 Y-56.4857
G01 X17.3609 Y-56.4784
G01 X17.3800 Y-56.4672
G01 X17.3957 Y-56.4555
G01 X17.4103 Y-56.4423
G01 X17.4235 Y-56.4278
G01 X17.4365 Y-56.4099
G01 X17.4452 Y-56.3951
G01 X17.4526 Y-56.3796
G01 X17.4595 Y-56.3612
G01 X17.4650 Y-56.3399
G01 X17.4679 Y-56.3204
G01 X17.4689 Y-56.3008
G01 X17.4689 Y-55.5151
G01 X17.4679 Y-55.4955
G01 X17.4650 Y-55.4761
G01 X17.4603 Y-55.4570
G01 X17.4536 Y-55.4385
G01 X17.4477 Y-55.4256
G01 X17.3763 Y-55.2828
G01 X17.3712 Y-55.2732
G01 X17.3660 Y-55.2646
G01 X17.3562 Y-55.2506
G01 X17.3493 Y-55.2421
G01 X17.3426 Y-55.2347
G01 X17.3349 Y-55.2270
G01 X17.3275 Y-55.2203
G01 X17.3140 Y-55.2097
G01 X17.3040 Y-55.2029
G01 X17.2954 Y-55.1978
G01 X17.1440 Y-55.1219
G01 X17.1311 Y-55.1160
G01 X17.1138 Y-55.1097
G01 X17.1062 Y-55.1075
G01 X17.0882 Y-55.1036
G01 X17.0687 Y-55.1013
G01 X17.0545 Y-55.1008
G01 X16.7688 Y-55.1008
G01 X16.7492 Y-55.1017
G01 X16.7310 Y-55.1044
G01 X16.7171 Y-55.1075
G01 X16.7095 Y-55.1097
G01 X16.6934 Y-55.1155
G01 X16.6804 Y-55.1213
G01 X16.5365 Y-55.1933
G01 X16.5183 Y-55.2036
G01 X16.5033 Y-55.2142
G01 X16.4902 Y-55.2253
G01 X16.4732 Y-55.2431
G01 X16.4627 Y-55.2566
G01 X16.4521 Y-55.2732
G01 X16.4432 Y-55.2907
G01 X16.4370 Y-55.3067
G01 X16.4304 Y-55.3303
G01 X16.4274 Y-55.3472
G01 X16.4259 Y-55.3668
G01 X16.4264 Y-55.3864
G01 X16.4284 Y-55.4035
G01 X16.4337 Y-55.4275
G01 X16.4391 Y-55.4438
G01 X16.4470 Y-55.4617
G01 X16.4566 Y-55.4788
G01 X16.4664 Y-55.4930
G01 X16.4824 Y-55.5116
G01 X16.4948 Y-55.5234
G01 X16.5103 Y-55.5355
G01 X16.5269 Y-55.5461
G01 X16.5422 Y-55.5539
G01 X16.5650 Y-55.5628
G01 X16.5816 Y-55.5674
G01 X16.6009 Y-55.5708
G01 X16.6205 Y-55.5723
G01 X16.6363 Y-55.5720
G01 X16.5365 Y-55.6219
G01 X16.5194 Y-55.6315
G01 X16.5042 Y-55.6420
G01 X16.4939 Y-55.6505
G01 X16.4807 Y-55.6633
G01 X16.4679 Y-55.6782
G01 X16.4566 Y-55.6942
G01 X16.4475 Y-55.7103
G01 X16.3756 Y-55.8542
G01 X16.3701 Y-55.8660
G01 X16.3672 Y-55.8733
G01 X16.3612 Y-55.8920
G01 X16.3573 Y-55.9100
G01 X16.3550 Y-55.9283
G00 Z2.0000
G00 X16.7546 Y-56.0393
G01 F25.00
G01 Z-0.1001
G01 F30.00
G01 X16.7751 Y-56.0803
G01 X16.8160 Y-56.1008
G01 X17.0687 Y-56.1008
G01 X17.0687 Y-55.9295
G01 X16.8160 Y-55.9295
G01 X16.7751 Y-55.9500
G01 X16.7546 Y-55.9909
G01 X16.7546 Y-56.0393
G00 Z2.0000
G00 X17.0073 Y-55.5009
G01 F25.00
G01 Z-0.1001
G01 F30.00
G01 X16.8160 Y-55.5009
G01 X16.7585 Y-55.5297
G01 X16.7688 Y-55.5293
G01 X17.0522 Y-55.5293
G01 X17.0482 Y-55.5214
G01 X17.0073 Y-55.5009
G00 Z2.0000
G00 X17.7121 Y-55.5009
G01 F25.00
G01 Z-0.1001
G01 F30.00
G01 X17.7116 Y-55.5151
G01 X17.7116 Y-55.5865
G01 X17.7121 Y-55.6007
G01 X17.7142 Y-55.6190
G01 X17.7157 Y-55.6268
G01 X17.7190 Y-55.6406
G01 X17.7244 Y-55.6569
G01 X17.7273 Y-55.6642
G01 X17.7327 Y-55.6760
G01 X17.8041 Y-55.8189
G01 X17.8093 Y-55.8285
G01 X17.8198 Y-55.8450
G01 X17.8311 Y-55.8596
G01 X17.8387 Y-55.8679
G01 X17.8520 Y-55.8805
G01 X17.8604 Y-55.8875
G01 X17.8684 Y-55.8934
G01 X17.8829 Y-55.9026
G01 X17.8925 Y-55.9078
G01 X18.0365 Y-55.9798
G01 X18.0482 Y-55.9852
G01 X18.0556 Y-55.9881
G01 X18.0719 Y-55.9935
G01 X18.0857 Y-55.9968
G01 X18.0935 Y-55.9982
G01 X18.1130 Y-56.0005
G01 X18.1259 Y-56.0009
G01 X18.2930 Y-56.0009
G01 X18.3340 Y-56.0214
G01 X18.3487 Y-56.0508
G01 X18.3340 Y-56.0803
G01 X18.2930 Y-56.1008
G01 X18.1017 Y-56.1008
G01 X18.0011 Y-56.0504
G01 X17.9843 Y-56.0430
G01 X17.9621 Y-56.0358
G01 X17.9453 Y-56.0322
G01 X17.9271 Y-56.0299
G01 X17.9038 Y-56.0295
G01 X17.8866 Y-56.0309
G01 X17.8673 Y-56.0343
G01 X17.8484 Y-56.0396
G01 X17.8323 Y-56.0458
G01 X17.8126 Y-56.0556
G01 X17.7960 Y-56.0661
G01 X17.7787 Y-56.0799
G01 X17.7664 Y-56.0918
G01 X17.7551 Y-56.1048
G01 X17.7423 Y-56.1228
G01 X17.7327 Y-56.1399
G01 X17.7240 Y-56.1602
G01 X17.7181 Y-56.1789
G01 X17.7144 Y-56.1957
G01 X17.7123 Y-56.2128
G01 X17.7117 Y-56.2348
G01 X17.7131 Y-56.2544
G01 X17.7166 Y-56.2738
G01 X17.7227 Y-56.2950
G01 X17.7290 Y-56.3110
G01 X17.7367 Y-56.3263
G01 X17.7470 Y-56.3430
G01 X17.7605 Y-56.3605
G01 X17.7741 Y-56.3747
G01 X17.7890 Y-56.3875
G01 X17.8030 Y-56.3974
G01 X17.8222 Y-56.4084
G01 X17.9662 Y-56.4803
G01 X17.9819 Y-56.4872
G01 X17.9953 Y-56.4919
G01 X18.0143 Y-56.4968
G01 X18.0220 Y-56.4982
G01 X18.0349 Y-56.4999
G01 X18.0533 Y-56.5009
G01 X18.3402 Y-56.5009
G01 X18.3598 Y-56.4999
G01 X18.3727 Y-56.4982
G01 X18.3805 Y-56.4968
G01 X18.3942 Y-56.4935
G01 X18.4106 Y-56.4881
G01 X18.4286 Y-56.4803
G01 X18.5726 Y-56.4084
G01 X18.5822 Y-56.4032
G01 X18.5907 Y-56.3981
G01 X18.6057 Y-56.3875
G01 X18.6151 Y-56.3797
G01 X18.6284 Y-56.3670
G01 X18.6350 Y-56.3596
G01 X18.6456 Y-56.3460
G01 X18.6524 Y-56.3360
G01 X18.6575 Y-56.3274
G01 X18.7340 Y-56.1749
G01 X18.7414 Y-56.1580
G01 X18.7475 Y-56.1394
G01 X18.7517 Y-56.1202
G01 X18.7535 Y-56.1074
G01 X18.7542 Y-56.0995
G01 X18.7546 Y-56.0865
G01 X18.7546 Y-56.0151
G01 X18.7542 Y-56.0022
G01 X18.7535 Y-55.9943
G01 X18.7517 Y-55.9814
G01 X18.7478 Y-55.9635
G01 X18.7460 Y-55.9570
G01 X18.7398 Y-55.9397
G01 X18.7335 Y-55.9256
G01 X18.6620 Y-55.7828
G01 X18.6524 Y-55.7657
G01 X18.6411 Y-55.7496
G01 X18.6342 Y-55.7412
G01 X18.6275 Y-55.7338
G01 X18.6198 Y-55.7262
G01 X18.6067 Y-55.7150
G01 X18.5987 Y-55.7090
G01 X18.5897 Y-55.7029
G01 X18.5726 Y-55.6933
G01 X18.4297 Y-55.6219
G01 X18.4168 Y-55.6160
G01 X18.3995 Y-55.6097
G01 X18.3919 Y-55.6075
G01 X18.3739 Y-55.6036
G01 X18.3544 Y-55.6013
G01 X18.3402 Y-55.6008
G01 X18.1732 Y-55.6008
G01 X18.1322 Y-55.5803
G01 X18.1175 Y-55.5508
G01 X18.1322 Y-55.5214
G01 X18.1732 Y-55.5009
G01 X18.2930 Y-55.5009
G01 X18.3936 Y-55.5512
G01 X18.4104 Y-55.5587
G01 X18.4326 Y-55.5658
G01 X18.4494 Y-55.5695
G01 X18.4677 Y-55.5717
G01 X18.4885 Y-55.5723
G01 X18.5057 Y-55.5710
G01 X18.5298 Y-55.5667
G01 X18.5463 Y-55.5621
G01 X18.5646 Y-55.5549
G01 X18.5822 Y-55.5461
G01 X18.5967 Y-55.5369
G01 X18.6142 Y-55.5234
G01 X18.6284 Y-55.5098
G01 X18.6411 Y-55.4949
G01 X18.6537 Y-55.4767
G01 X18.6620 Y-55.4617
G01 X18.6690 Y-55.4460
G01 X18.6753 Y-55.4275
G01 X18.6803 Y-55.4059
G01 X18.6827 Y-55.3864
G01 X18.6831 Y-55.3668
G01 X18.6816 Y-55.3472
G01 X18.6782 Y-55.3279
G01 X18.6721 Y-55.3067
G01 X18.6647 Y-55.2885
G01 X18.6569 Y-55.2732
G01 X18.6477 Y-55.2587
G01 X18.6342 Y-55.2412
G01 X18.6207 Y-55.2270
G01 X18.6058 Y-55.2142
G01 X18.5917 Y-55.2043
G01 X18.5726 Y-55.1933
G01 X18.4286 Y-55.1213
G01 X18.4106 Y-55.1135
G01 X18.3942 Y-55.1082
G01 X18.3805 Y-55.1049
G01 X18.3727 Y-55.1034
G01 X18.3598 Y-55.1017
G01 X18.3415 Y-55.1008
G01 X18.1247 Y-55.1008
G01 X18.1105 Y-55.1014
G01 X18.0935 Y-55.1034
G01 X18.0857 Y-55.1049
G01 X18.0679 Y-55.1094
G01 X18.0544 Y-55.1140
G01 X18.0376 Y-55.1213
G01 X17.8851 Y-55.1978
G01 X17.8755 Y-55.2036
G01 X17.8604 Y-55.2142
G01 X17.8464 Y-55.2262
G01 X17.8370 Y-55.2356
G01 X17.8311 Y-55.2421
G01 X17.8205 Y-55.2556
G01 X17.8138 Y-55.2657
G01 X17.8087 Y-55.2742
G01 X17.7322 Y-55.4268
G01 X17.7248 Y-55.4436
G01 X17.7187 Y-55.4623
G01 X17.7144 Y-55.4814
G01 X17.7121 Y-55.5009
G00 Z2.0000
G00 X20.0688 Y-55.2252
G01 F25.00
G01 Z-0.1001
G01 F30.00
G01 X20.0692 Y-55.2436
G01 X20.0716 Y-55.2631
G01 X20.0758 Y-55.2822
G01 X20.0811 Y-55.2986
G01 X20.0910 Y-55.3210
G01 X20.0995 Y-55.3360
G01 X20.1107 Y-55.3521
G01 X20.1235 Y-55.3670
G01 X20.1359 Y-55.3789
G01 X20.1552 Y-55.3940
G01 X20.1697 Y-55.4032
G01 X20.1872 Y-55.4121
G01 X20.2055 Y-55.4192
G01 X20.2232 Y-55.4242
G01 X20.2462 Y-55.4282
G01 X20.2633 Y-55.4294
G01 X20.2805 Y-55.4291
G01 X20.3025 Y-55.4266
G01 X20.3228 Y-55.4220
G01 X20.3403 Y-55.4163
G01 X20.3572 Y-55.4089
G01 X20.4973 Y-55.3388
G01 X20.4973 Y-56.1008
G01 X20.2676 Y-56.1008
G01 X20.2492 Y-56.1017
G01 X20.2322 Y-56.1042
G01 X20.2084 Y-56.1101
G01 X20.1922 Y-56.1160
G01 X20.1745 Y-56.1244
G01 X20.1556 Y-56.1359
G01 X20.1419 Y-56.1462
G01 X20.1291 Y-56.1577
G01 X20.1141 Y-56.1739
G01 X20.1024 Y-56.1897
G01 X20.0923 Y-56.2065
G01 X20.0840 Y-56.2243
G01 X20.0773 Y-56.2427
G01 X20.0726 Y-56.2618
G01 X20.0697 Y-56.2812
G01 X20.0687 Y-56.3008
G01 X20.0697 Y-56.3204
G01 X20.0726 Y-56.3399
G01 X20.0773 Y-56.3589
G01 X20.0840 Y-56.3774
G01 X20.0923 Y-56.3951
G01 X20.1024 Y-56.4120
G01 X20.1141 Y-56.4278
G01 X20.1273 Y-56.4423
G01 X20.1419 Y-56.4555
G01 X20.1576 Y-56.4672
G01 X20.1745 Y-56.4773
G01 X20.1900 Y-56.4847
G01 X20.2107 Y-56.4923
G01 X20.2274 Y-56.4965
G01 X20.2516 Y-56.5001
G01 X20.2688 Y-56.5009
G01 X21.1259 Y-56.5009
G01 X21.1455 Y-56.4999
G01 X21.1650 Y-56.4971
G01 X21.1840 Y-56.4923
G01 X21.2025 Y-56.4857
G01 X21.2203 Y-56.4773
G01 X21.2371 Y-56.4672
G01 X21.2529 Y-56.4555
G01 X21.2674 Y-56.4423
G01 X21.2806 Y-56.4278
G01 X21.2923 Y-56.4120
G01 X21.3024 Y-56.3951
G01 X21.3108 Y-56.3774
G01 X21.3174 Y-56.3589
G01 X21.3222 Y-56.3399
G01 X21.3251 Y-56.3204
G01 X21.3260 Y-56.3008
G01 X21.3251 Y-56.2812
G01 X21.3222 Y-56.2618
G01 X21.3174 Y-56.2427
G01 X21.3108 Y-56.2243
G01 X21.3024 Y-56.2065
G01 X21.2923 Y-56.1897
G01 X21.2806 Y-56.1739
G01 X21.2656 Y-56.1577
G01 X21.2529 Y-56.1462
G01 X21.2391 Y-56.1359
G01 X21.2203 Y-56.1244
G01 X21.2025 Y-56.1160
G01 X21.1863 Y-56.1101
G01 X21.1626 Y-56.1042
G01 X21.1455 Y-56.1017
G01 X21.1272 Y-56.1008
G01 X20.8974 Y-56.1008
G01 X20.8974 Y-54.7982
G01 X20.8965 Y-54.7810
G01 X20.8936 Y-54.7616
G01 X20.8888 Y-54.7426
G01 X20.8821 Y-54.7241
G01 X20.8737 Y-54.7064
G01 X20.8637 Y-54.6897
G01 X20.8520 Y-54.6739
G01 X20.8388 Y-54.6593
G01 X20.8243 Y-54.6462
G01 X20.8105 Y-54.6359
G01 X20.7938 Y-54.6256
G01 X20.7893 Y-54.6232
G01 X20.7738 Y-54.6159
G01 X20.7553 Y-54.6093
G01 X20.7362 Y-54.6046
G01 X20.7168 Y-54.6017
G01 X20.6973 Y-54.6008
G01 X20.6777 Y-54.6017
G01 X20.6583 Y-54.6046
G01 X20.6417 Y-54.6087
G01 X20.6231 Y-54.6151
G01 X20.6184 Y-54.6171
G01 X20.6018 Y-54.6251
G01 X20.5840 Y-54.6360
G01 X20.5703 Y-54.6463
G01 X20.5558 Y-54.6595
G01 X20.5427 Y-54.6739
G01 X20.5324 Y-54.6877
G01 X20.3990 Y-54.8876
G01 X20.2931 Y-54.9935
G01 X20.1793 Y-55.0504
G01 X20.1633 Y-55.0594
G01 X20.1442 Y-55.0729
G01 X20.1312 Y-55.0841
G01 X20.1176 Y-55.0983
G01 X20.1055 Y-55.1138
G01 X20.0950 Y-55.1303
G01 X20.0861 Y-55.1478
G01 X20.0798 Y-55.1638
G01 X20.0732 Y-55.1874
G01 X20.0703 Y-55.2044
G01 X20.0688 Y-55.2252
G00 Z2.0000
G00 X21.4981 Y-55.4265
G01 F25.00
G01 Z-0.1001
G01 F30.00
G01 X21.4973 Y-55.4437
G01 X21.4973 Y-56.0151
G01 X21.4983 Y-56.0347
G01 X21.5000 Y-56.0476
G01 X21.5014 Y-56.0553
G01 X21.5047 Y-56.0691
G01 X21.5101 Y-56.0855
G01 X21.5179 Y-56.1035
G01 X21.5898 Y-56.2474
G01 X21.5988 Y-56.2635
G01 X21.6024 Y-56.2691
G01 X21.6141 Y-56.2849
G01 X21.6265 Y-56.2986
G01 X21.6996 Y-56.3717
G01 X21.7124 Y-56.3833
G01 X21.7185 Y-56.3882
G01 X21.7336 Y-56.3987
G01 X21.7459 Y-56.4059
G01 X21.8947 Y-56.4803
G01 X21.9104 Y-56.4872
G01 X21.9238 Y-56.4919
G01 X21.9314 Y-56.4941
G01 X21.9440 Y-56.4971
G01 X21.9635 Y-56.4999
G01 X21.9831 Y-56.5009
G01 X22.2688 Y-56.5009
G01 X22.2818 Y-56.5005
G01 X22.2896 Y-56.4998
G01 X22.3037 Y-56.4978
G01 X22.3205 Y-56.4941
G01 X22.3391 Y-56.4881
G01 X22.3465 Y-56.4852
G01 X22.3583 Y-56.4798
G01 X22.5011 Y-56.4084
G01 X22.5182 Y-56.3987
G01 X22.5343 Y-56.3875
G01 X22.5492 Y-56.3747
G01 X22.6254 Y-56.2986
G01 X22.6370 Y-56.2858
G01 X22.6419 Y-56.2797
G01 X22.6524 Y-56.2646
G01 X22.6601 Y-56.2512
G01 X22.7335 Y-56.1046
G01 X22.7394 Y-56.0917
G01 X22.7460 Y-56.0732
G01 X22.7507 Y-56.0541
G01 X22.7536 Y-56.0347
G01 X22.7546 Y-56.0163
G01 X22.7546 Y-55.6580
G01 X22.7540 Y-55.6426
G01 X22.7517 Y-55.6243
G01 X22.7478 Y-55.6063
G01 X22.7460 Y-55.5999
G01 X22.7418 Y-55.5876
G01 X22.7389 Y-55.5803
G01 X22.7335 Y-55.5685
G01 X22.6589 Y-55.4197
G01 X22.6517 Y-55.4075
G01 X22.6419 Y-55.3934
G01 X22.6370 Y-55.3872
G01 X22.6284 Y-55.3775
G01 X22.5523 Y-55.3014
G01 X22.5395 Y-55.2898
G01 X22.5333 Y-55.2849
G01 X22.5182 Y-55.2744
G01 X22.5011 Y-55.2647
G01 X22.3583 Y-55.1933
G01 X22.3403 Y-55.1854
G01 X22.3269 Y-55.1808
G01 X22.3090 Y-55.1763
G01 X22.3013 Y-55.1748
G01 X22.2818 Y-55.1726
G01 X22.2688 Y-55.1722
G01 X21.9998 Y-55.1722
G01 X22.0671 Y-55.0712
G01 X22.1016 Y-55.0367
G01 X22.1732 Y-55.0009
G01 X22.4129 Y-55.0009
G01 X22.4313 Y-54.9999
G01 X22.4483 Y-54.9975
G01 X22.4721 Y-54.9915
G01 X22.4882 Y-54.9857
G01 X22.5060 Y-54.9773
G01 X22.5228 Y-54.9672
G01 X22.5366 Y-54.9570
G01 X22.5531 Y-54.9423
G01 X22.5663 Y-54.9278
G01 X22.5780 Y-54.9120
G01 X22.5881 Y-54.8951
G01 X22.5974 Y-54.8751
G01 X22.6031 Y-54.8589
G01 X22.6083 Y-54.8374
G01 X22.6108 Y-54.8204
G01 X22.6117 Y-54.8033
G01 X22.6109 Y-54.7837
G01 X22.6079 Y-54.7618
G01 X22.6031 Y-54.7427
G01 X22.5965 Y-54.7243
G01 X22.5881 Y-54.7065
G01 X22.5780 Y-54.6897
G01 X22.5663 Y-54.6739
G01 X22.5531 Y-54.6594
G01 X22.5366 Y-54.6447
G01 X22.5228 Y-54.6345
G01 X22.5081 Y-54.6256
G01 X22.4882 Y-54.6160
G01 X22.4697 Y-54.6094
G01 X22.4531 Y-54.6051
G01 X22.4313 Y-54.6017
G01 X22.4117 Y-54.6008
G01 X22.1259 Y-54.6008
G01 X22.1063 Y-54.6017
G01 X22.0923 Y-54.6036
G01 X22.0743 Y-54.6075
G01 X22.0667 Y-54.6097
G01 X22.0482 Y-54.6165
G01 X22.0365 Y-54.6219
G01 X21.8888 Y-54.6958
G01 X21.8765 Y-54.7029
G01 X21.8614 Y-54.7135
G01 X21.8552 Y-54.7184
G01 X21.8416 Y-54.7308
G01 X21.7700 Y-54.8023
G01 X21.7561 Y-54.8179
G01 X21.7453 Y-54.8326
G01 X21.6023 Y-55.0470
G01 X21.5971 Y-55.0552
G01 X21.5917 Y-55.0649
G01 X21.5844 Y-55.0805
G01 X21.5808 Y-55.0895
G01 X21.5773 Y-55.1001
G01 X21.5747 Y-55.1094
G01 X21.5033 Y-55.3952
G01 X21.4996 Y-55.4132
G01 X21.4981 Y-55.4265
G00 Z2.0000
G00 X22.3186 Y-56.0395
G01 F25.00
G01 Z-0.1001
G01 F30.00
G01 X22.3544 Y-55.9679
G01 X22.3544 Y-55.7052
G01 X22.3186 Y-55.6336
G01 X22.2931 Y-55.6081
G01 X22.2216 Y-55.5723
G01 X22.0303 Y-55.5723
G01 X21.9587 Y-55.6081
G01 X21.9332 Y-55.6336
G01 X21.8974 Y-55.7052
G01 X21.8974 Y-55.9679
G01 X21.9332 Y-56.0395
G01 X21.9587 Y-56.0650
G01 X22.0303 Y-56.1008
G01 X22.2216 Y-56.1008
G01 X22.2931 Y-56.0650
G01 X22.3186 Y-56.0395
G00 Z2.0000
G00 X22.9262 Y-55.3613
G01 F25.00
G01 Z-0.1001
G01 F30.00
G01 X22.9259 Y-55.3723
G01 X22.9259 Y-55.7294
G01 X22.9268 Y-55.7490
G01 X22.9282 Y-55.7599
G01 X22.9318 Y-55.7779
G01 X23.0044 Y-56.0680
G01 X23.0105 Y-56.0866
G01 X23.0184 Y-56.1046
G01 X23.0898 Y-56.2474
G01 X23.0988 Y-56.2635
G01 X23.1024 Y-56.2691
G01 X23.1134 Y-56.2839
G01 X23.1235 Y-56.2955
G01 X23.1987 Y-56.3709
G01 X23.2124 Y-56.3833
G01 X23.2185 Y-56.3882
G01 X23.2291 Y-56.3958
G01 X23.2347 Y-56.3994
G01 X23.2507 Y-56.4084
G01 X23.3947 Y-56.4803
G01 X23.4116 Y-56.4877
G01 X23.4302 Y-56.4938
G01 X23.4428 Y-56.4968
G01 X23.4506 Y-56.4982
G01 X23.4677 Y-56.5003
G01 X23.4819 Y-56.5009
G01 X23.6259 Y-56.5009
G01 X23.6389 Y-56.5005
G01 X23.6468 Y-56.4998
G01 X23.6608 Y-56.4978
G01 X23.6776 Y-56.4941
G01 X23.6963 Y-56.4881
G01 X23.7036 Y-56.4852
G01 X23.7154 Y-56.4798
G01 X23.8583 Y-56.4084
G01 X23.8754 Y-56.3987
G01 X23.8915 Y-56.3875
G01 X23.9064 Y-56.3747
G01 X23.9817 Y-56.2994
G01 X23.9941 Y-56.2858
G01 X23.9990 Y-56.2797
G01 X24.0066 Y-56.2691
G01 X24.0167 Y-56.2523
G01 X24.0906 Y-56.1046
G01 X24.0976 Y-56.0889
G01 X24.1001 Y-56.0824
G01 X24.1058 Y-56.0636
G01 X24.1793 Y-55.7684
G01 X24.1822 Y-55.7490
G01 X24.1832 Y-55.7294
G01 X24.1832 Y-55.3723
G01 X24.1828 Y-55.3613
G01 X24.1810 Y-55.3430
G01 X24.1772 Y-55.3237
G01 X24.1058 Y-55.0380
G01 X24.1001 Y-55.0192
G01 X24.0931 Y-55.0022
G01 X24.0192 Y-54.8542
G01 X24.0102 Y-54.8381
G01 X24.0059 Y-54.8315
G01 X23.9949 Y-54.8168
G01 X23.9855 Y-54.8061
G01 X23.9103 Y-54.7308
G01 X23.8967 Y-54.7184
G01 X23.8905 Y-54.7135
G01 X23.8799 Y-54.7059
G01 X23.8631 Y-54.6958
G01 X23.7154 Y-54.6219
G01 X23.7036 Y-54.6165
G01 X23.6963 Y-54.6135
G01 X23.6840 Y-54.6094
G01 X23.6650 Y-54.6046
G01 X23.6455 Y-54.6017
G01 X23.6272 Y-54.6008
G01 X23.4831 Y-54.6008
G01 X23.4701 Y-54.6012
G01 X23.4623 Y-54.6019
G01 X23.4494 Y-54.6036
G01 X23.4302 Y-54.6079
G01 X23.4116 Y-54.6140
G01 X23.3936 Y-54.6219
G01 X23.2507 Y-54.6933
G01 X23.2448 Y-54.6964
G01 X23.2291 Y-54.7059
G01 X23.2133 Y-54.7176
G01 X23.1988 Y-54.7308
G01 X23.1235 Y-54.8061
G01 X23.1141 Y-54.8168
G01 X23.1031 Y-54.8315
G01 X23.0988 Y-54.8381
G01 X23.0898 Y-54.8542
G01 X23.0165 Y-55.0011
G01 X23.0090 Y-55.0192
G01 X23.0033 Y-55.0380
G01 X22.9318 Y-55.3237
G01 X22.9280 Y-55.3430
G01 X22.9262 Y-55.3613
G00 Z2.0000
G00 X23.7830 Y-55.3969
G01 F25.00
G01 Z-0.1001
G01 F30.00
G01 X23.7229 Y-55.1564
G01 X23.6758 Y-55.0622
G01 X23.6503 Y-55.0367
G01 X23.5787 Y-55.0009
G01 X23.5303 Y-55.0009
G01 X23.4587 Y-55.0367
G01 X23.4332 Y-55.0622
G01 X23.3861 Y-55.1564
G01 X23.3260 Y-55.3969
G01 X23.3260 Y-55.7048
G01 X23.3861 Y-55.9453
G01 X23.4332 Y-56.0395
G01 X23.4587 Y-56.0650
G01 X23.5303 Y-56.1008
G01 X23.5787 Y-56.1008
G01 X23.6503 Y-56.0650
G01 X23.6758 Y-56.0395
G01 X23.7229 Y-55.9453
G01 X23.7830 Y-55.7048
G01 X23.7830 Y-55.3969
G00 Z2.0000
G00 X24.3547 Y-55.3625
G01 F25.00
G01 Z-0.1001
G01 F30.00
G01 X24.3544 Y-55.7294
G01 X24.3547 Y-55.7391
G01 X24.3555 Y-55.7502
G01 X24.3581 Y-55.7672
G01 X24.3604 Y-55.7779
G01 X24.4330 Y-56.0680
G01 X24.4391 Y-56.0866
G01 X24.4470 Y-56.1046
G01 X24.5184 Y-56.2474
G01 X24.5274 Y-56.2635
G01 X24.5310 Y-56.2691
G01 X24.5419 Y-56.2839
G01 X24.5521 Y-56.2955
G01 X24.6273 Y-56.3709
G01 X24.6409 Y-56.3833
G01 X24.6471 Y-56.3882
G01 X24.6576 Y-56.3958
G01 X24.6633 Y-56.3994
G01 X24.6793 Y-56.4084
G01 X24.8233 Y-56.4803
G01 X24.8401 Y-56.4877
G01 X24.8588 Y-56.4938
G01 X24.8714 Y-56.4968
G01 X24.8792 Y-56.4982
G01 X24.8962 Y-56.5003
G01 X24.9104 Y-56.5009
G01 X25.0545 Y-56.5009
G01 X25.0675 Y-56.5005
G01 X25.0753 Y-56.4998
G01 X25.0894 Y-56.4978
G01 X25.1062 Y-56.4941
G01 X25.1249 Y-56.4881
G01 X25.1322 Y-56.4852
G01 X25.1440 Y-56.4798
G01 X25.2868 Y-56.4084
G01 X25.3040 Y-56.3987
G01 X25.3200 Y-56.3875
G01 X25.3349 Y-56.3747
G01 X25.4103 Y-56.2994
G01 X25.4227 Y-56.2858
G01 X25.4276 Y-56.2797
G01 X25.4352 Y-56.2691
G01 X25.4452 Y-56.2523
G01 X25.5192 Y-56.1046
G01 X25.5262 Y-56.0889
G01 X25.5286 Y-56.0824
G01 X25.5343 Y-56.0636
G01 X25.6079 Y-55.7684
G01 X25.6108 Y-55.7490
G01 X25.6117 Y-55.7294
G01 X25.6117 Y-55.3723
G01 X25.6114 Y-55.3613
G01 X25.6096 Y-55.3430
G01 X25.6058 Y-55.3237
G01 X25.5343 Y-55.0380
G01 X25.5286 Y-55.0192
G01 X25.5216 Y-55.0022
G01 X25.4477 Y-54.8542
G01 X25.4388 Y-54.8381
G01 X25.4345 Y-54.8315
G01 X25.4235 Y-54.8168
G01 X25.4141 Y-54.8061
G01 X25.3388 Y-54.7308
G01 X25.3252 Y-54.7184
G01 X25.3191 Y-54.7135
G01 X25.3085 Y-54.7059
G01 X25.2917 Y-54.6958
G01 X25.1440 Y-54.6219
G01 X25.1322 Y-54.6165
G01 X25.1249 Y-54.6135
G01 X25.1126 Y-54.6094
G01 X25.0935 Y-54.6046
G01 X25.0741 Y-54.6017
G01 X25.0557 Y-54.6008
G01 X24.9117 Y-54.6008
G01 X24.8987 Y-54.6012
G01 X24.8908 Y-54.6019
G01 X24.8780 Y-54.6036
G01 X24.8588 Y-54.6079
G01 X24.8401 Y-54.6140
G01 X24.8222 Y-54.6219
G01 X24.6793 Y-54.6933
G01 X24.6734 Y-54.6964
G01 X24.6576 Y-54.7059
G01 X24.6419 Y-54.7176
G01 X24.6273 Y-54.7308
G01 X24.5521 Y-54.8061
G01 X24.5427 Y-54.8168
G01 X24.5317 Y-54.8315
G01 X24.5274 Y-54.8381
G01 X24.5184 Y-54.8542
G01 X24.4450 Y-55.0011
G01 X24.4391 Y-55.0150
G01 X24.4330 Y-55.0337
G01 X24.3604 Y-55.3237
G01 X24.3566 Y-55.3430
G01 X24.3547 Y-55.3625
G00 Z2.0000
G00 X25.2116 Y-55.7048
G01 F25.00
G01 Z-0.1001
G01 F30.00
G01 X25.2116 Y-55.3969
G01 X25.1514 Y-55.1564
G01 X25.1044 Y-55.0622
G01 X25.0789 Y-55.0367
G01 X25.0073 Y-55.0009
G01 X24.9589 Y-55.0009
G01 X24.8873 Y-55.0367
G01 X24.8618 Y-55.0622
G01 X24.8147 Y-55.1564
G01 X24.7546 Y-55.3969
G01 X24.7546 Y-55.7048
G01 X24.8147 Y-55.9453
G01 X24.8618 Y-56.0395
G01 X24.8873 Y-56.0650
